data/ti1/display-normal.ti1
CTI1   

DESCRIPTOR "Argyll Calibration Target chart information 1"
ORIGINATOR "Argyll targen"
CREATED "Mon Nov  7 19:20:22 2011"
KEYWORD "APPROX_WHITE_POINT"
APPROX_WHITE_POINT "95.106486 100.000000 108.844025"
KEYWORD "COLOR_REP"
COLOR_REP "RGB"
KEYWORD "WHITE_COLOR_PATCHES"
WHITE_COLOR_PATCHES "4"
KEYWORD "ERROR_OPTIMISED_PATCHES"
ERROR_OPTIMISED_PATCHES "246"

NUMBER_OF_FIELDS 7
BEGIN_DATA_FORMAT
SAMPLE_ID RGB_R RGB_G RGB_B XYZ_X XYZ_Y XYZ_Z 
END_DATA_FORMAT

NUMBER_OF_SETS 250
BEGIN_DATA
1 100.00 100.00 100.00 95.106 100.00 108.84 
2 100.00 100.00 100.00 95.106 100.00 108.84 
3 100.00 100.00 100.00 95.106 100.00 108.84 
4 100.00 100.00 100.00 95.106 100.00 108.84 
5 28.217 32.030 33.138 8.2096 8.9295 10.560 
6 100.00 0.0000 100.00 59.701 29.199 97.042 
7 100.00 100.00 0.0000 77.235 92.853 14.715 
8 0.0000 100.00 100.00 54.276 78.948 106.93 
9 0.0000 100.00 0.0000 36.405 71.801 12.802 
10 0.0000 0.0000 100.00 18.871 8.1473 95.129 
11 100.00 0.0000 0.0000 41.830 22.052 2.9132 
12 0.0000 0.0000 0.0000 1.0000 1.0000 1.0000 
13 0.0000 52.853 100.00 27.418 25.239 97.978 
14 100.00 0.0000 51.288 45.872 23.669 24.201 
15 100.00 52.949 100.00 68.282 46.359 99.903 
16 100.00 51.319 0.0000 49.848 38.085 5.5858 
17 0.0000 49.782 0.0000 8.5070 16.012 3.5024 
18 0.0000 0.0000 51.134 5.0154 2.6059 22.149 
19 0.0000 100.00 53.090 40.762 73.543 35.748 
20 100.00 100.00 52.608 81.506 94.561 37.210 
21 49.710 0.0000 0.0000 9.6300 5.4496 1.4044 
22 51.271 100.00 0.0000 45.632 76.558 13.234 
23 47.052 100.00 100.00 61.943 82.901 107.29 
24 49.439 0.0000 100.00 27.400 12.545 95.529 
25 100.00 46.640 51.511 52.433 36.729 26.577 
26 48.491 42.410 100.00 32.375 23.012 97.287 
27 48.970 100.00 48.980 48.419 77.572 32.464 
28 48.959 0.0000 51.686 13.461 6.9495 23.039 
29 50.622 47.394 0.0000 16.728 19.130 3.6713 
30 0.0000 60.294 51.038 16.399 25.396 25.864 
31 100.00 25.627 100.00 61.593 32.982 97.673 
32 0.0000 29.928 100.00 21.452 13.307 95.989 
33 0.0000 0.0000 23.618 1.8135 1.3253 5.2847 
34 0.0000 22.833 0.0000 2.5092 4.0180 1.5031 
35 75.511 0.0000 100.00 40.532 19.316 96.144 
36 100.00 26.270 0.0000 43.817 26.025 3.5754 
37 73.086 100.00 100.00 74.414 89.331 107.87 
38 100.00 0.0000 24.924 42.734 22.414 7.6735 
39 100.00 76.754 27.641 62.422 61.455 15.253 
40 74.520 0.0000 0.0000 22.031 11.843 1.9855 
41 100.00 100.00 25.221 78.161 93.223 19.588 
42 23.907 76.377 0.0000 22.172 40.513 7.5121 
43 0.0000 76.082 100.00 37.973 46.347 101.50 
44 100.00 77.522 75.156 71.133 65.642 58.967 
45 0.0000 100.00 25.052 37.318 72.166 17.610 
46 26.795 100.00 71.583 47.203 76.395 57.236 
47 0.0000 32.389 71.697 12.476 10.440 46.489 
48 100.00 0.0000 76.272 51.526 25.930 53.984 
49 0.0000 100.00 76.951 46.296 75.756 64.896 
50 23.380 0.0000 0.0000 2.8223 1.9396 1.0854 
51 59.712 60.521 57.890 30.627 32.726 33.153 
52 73.369 73.442 0.0000 38.964 46.772 7.8359 
53 100.00 76.213 0.0000 61.006 60.399 9.3053 
54 25.651 100.00 0.0000 38.590 72.927 12.904 
55 29.653 0.0000 71.707 12.368 5.8843 45.629 
56 100.00 100.00 75.017 86.578 96.589 63.924 
57 25.776 74.869 100.00 39.505 46.136 101.38 
58 74.058 65.229 100.00 53.172 45.959 100.62 
59 0.0000 0.0000 75.846 10.575 4.8295 51.434 
60 0.0000 22.831 26.043 3.4947 4.4118 6.6946 
61 76.011 100.00 0.0000 58.389 83.135 13.832 
62 66.756 100.00 66.588 60.032 83.154 51.311 
63 0.0000 71.594 24.893 18.578 34.709 11.307 
64 24.208 27.452 0.0000 5.1188 6.3421 1.8143 
65 71.914 30.562 33.738 24.781 17.065 11.574 
66 100.00 76.347 100.00 78.953 67.698 103.46 
67 73.643 25.551 0.0000 23.362 15.321 2.5865 
68 71.959 24.223 71.397 30.511 17.761 46.542 
69 23.823 100.00 100.00 56.166 79.922 107.02 
70 0.0000 74.543 0.0000 19.249 37.492 7.0829 
71 31.424 0.0000 25.902 5.2614 3.0844 6.2900 
72 24.826 0.0000 100.00 20.920 9.2038 95.225 
73 75.510 0.0000 31.337 24.091 12.740 9.5484 
74 100.00 27.928 24.249 44.931 26.883 8.1723 
75 38.024 37.280 69.030 17.695 14.732 43.461 
76 63.557 0.0000 77.461 25.804 12.628 54.562 
77 73.879 22.005 100.00 40.905 21.594 96.564 
78 100.00 26.978 75.296 53.345 30.008 53.232 
79 75.439 100.00 27.156 59.091 83.374 19.457 
80 35.075 67.743 33.506 21.509 33.271 14.751 
81 23.522 23.842 100.00 22.356 12.381 95.763 
82 27.999 100.00 23.691 39.825 73.469 17.234 
83 0.0000 77.229 74.538 29.963 44.185 56.094 
84 0.0000 52.619 77.469 19.505 21.943 56.704 
85 70.652 58.792 19.320 31.013 32.418 8.3906 
86 24.883 67.602 73.935 26.781 35.032 53.627 
87 49.350 73.773 0.0000 27.326 41.037 7.3417 
88 100.00 71.797 51.477 62.686 57.241 29.966 
89 25.642 52.029 0.0000 11.444 18.644 3.8557 
90 100.00 51.316 76.312 59.554 41.966 56.716 
91 0.0000 46.176 23.879 8.2160 14.100 7.5057 
92 52.175 82.298 83.566 45.271 56.263 71.737 
93 100.00 52.151 23.712 50.952 38.982 9.9986 
94 24.438 51.210 100.00 28.838 25.131 97.882 
95 24.286 100.00 48.079 41.883 74.218 31.408 
96 76.407 0.0000 56.540 28.238 14.466 28.364 
97 76.016 81.867 47.052 48.858 58.704 27.209 
98 18.461 19.028 50.795 7.1898 5.3183 22.257 
99 54.476 37.489 48.420 19.201 16.064 21.660 
100 100.00 22.808 50.018 47.164 26.595 23.578 
101 74.308 51.188 76.811 39.720 31.658 56.519 
102 49.038 20.699 100.00 28.502 14.969 95.939 
103 75.942 51.139 0.0000 30.895 28.223 4.6802 
104 53.241 0.0000 22.194 11.736 6.4520 5.2680 
105 47.968 23.217 0.0000 10.550 8.2373 1.8940 
106 24.317 51.578 50.818 15.035 19.808 24.661 
107 75.957 44.830 100.00 46.813 31.448 98.155 
108 0.0000 80.384 48.971 26.267 45.676 27.466 
109 50.095 100.00 79.409 55.793 80.570 69.112 
110 37.366 82.081 57.271 33.490 50.771 35.843 
111 78.088 46.410 46.394 34.062 27.249 21.393 
112 78.009 78.591 77.583 54.915 58.121 61.996 
113 12.963 14.871 16.985 2.7439 2.8633 3.5609 
114 52.471 80.086 21.884 32.835 49.138 12.296 
115 48.779 53.404 78.437 28.351 26.882 58.678 
116 46.540 17.613 77.126 19.355 10.688 54.020 
117 50.754 47.532 19.670 17.395 19.471 6.7081 
118 50.231 63.247 100.00 40.365 38.029 99.765 
119 53.529 100.00 22.368 47.270 77.318 17.133 
120 0.0000 40.242 49.755 9.5492 12.041 22.523 
121 89.999 14.377 10.469 33.987 18.942 3.7347 
122 87.222 16.983 89.114 45.578 23.679 75.170 
123 17.673 21.426 82.276 14.903 8.8213 62.033 
124 50.716 16.590 37.412 12.906 8.1327 12.566 
125 79.642 82.402 22.121 48.973 59.562 13.535 
126 20.338 81.543 67.500 32.096 49.299 47.400 
127 23.347 49.015 19.557 10.644 16.681 6.4927 
128 0.0000 20.443 51.151 6.2399 5.0498 22.572 
129 54.845 82.624 100.00 52.542 59.625 103.29 
130 36.159 19.035 14.022 6.7703 5.5249 3.2031 
131 19.505 79.675 26.988 24.532 44.450 13.694 
132 22.461 81.001 86.748 37.619 51.010 76.611 
133 79.380 100.00 80.614 71.610 88.683 71.759 
134 80.922 19.264 48.402 30.956 17.654 21.333 
135 16.448 39.978 72.967 15.424 14.395 48.866 
136 48.611 53.761 40.569 20.539 23.955 17.227 
137 78.881 60.510 59.145 41.893 38.500 35.003 
138 82.680 48.046 24.385 35.369 28.941 9.1222 
139 62.715 15.386 11.519 16.288 9.9342 3.0945 
140 78.482 100.00 49.768 63.809 85.492 33.854 
141 52.930 37.020 81.347 26.090 18.575 61.807 
142 13.687 60.994 36.137 15.295 25.503 15.038 
143 86.223 34.355 80.822 44.647 27.308 61.666 
144 86.552 11.903 66.391 38.021 19.960 40.027 
145 81.079 83.678 100.00 67.931 68.546 104.20 
146 18.735 0.0000 41.772 4.7988 2.6576 14.764 
147 39.367 24.683 54.259 12.570 9.0444 25.891 
148 84.217 66.314 40.571 45.187 44.375 19.872 
149 40.051 60.139 11.621 18.003 26.564 6.2314 
150 56.697 75.765 46.209 34.640 46.058 24.848 
151 0.0000 17.576 81.074 13.041 7.2912 59.874 
152 87.361 65.060 78.108 54.769 47.552 60.769 
153 91.114 81.446 61.252 62.272 64.934 41.346 
154 13.436 63.321 89.663 28.314 32.317 78.756 
155 9.9306 59.903 11.215 12.858 23.768 5.8957 
156 17.481 35.753 53.120 10.133 10.723 25.262 
157 83.323 44.565 62.388 40.138 29.244 36.914 
158 65.284 15.588 86.180 30.170 15.667 69.184 
159 41.302 86.605 36.615 34.336 55.893 20.181 
160 87.999 13.370 33.849 33.801 18.563 11.447 
161 87.688 64.430 13.798 44.813 43.140 8.4156 
162 64.020 89.957 11.520 44.078 64.516 12.167 
163 12.035 40.608 36.636 8.3813 11.785 13.046 
164 62.469 13.352 52.408 20.018 11.158 24.165 
165 57.192 80.092 67.513 41.530 52.853 47.605 
166 61.623 45.622 64.850 27.772 23.256 39.313 
167 37.075 85.438 14.013 30.725 53.079 11.119 
168 91.750 88.196 39.506 63.527 72.496 23.634 
169 16.497 19.756 32.680 4.6521 4.4026 9.6359 
170 14.671 39.626 6.3226 6.4756 10.657 3.0660 
171 5.1814 84.988 11.318 25.880 50.157 10.321 
172 23.054 82.125 45.058 28.507 48.483 24.749 
173 32.663 12.656 87.840 18.396 9.1985 71.497 
174 43.825 49.680 60.826 20.925 21.687 34.700 
175 9.5006 55.889 65.456 17.930 23.258 40.567 
176 9.8554 14.991 65.438 8.9872 5.3500 37.560 
177 35.255 34.625 88.394 22.155 15.508 73.517 
178 36.848 84.884 74.860 39.293 55.921 58.336 
179 68.200 88.399 87.574 58.261 68.723 80.412 
180 98.004 83.941 14.610 64.156 68.877 12.530 
181 64.520 68.128 80.916 42.269 43.161 65.002 
182 18.846 0.56753 17.767 2.6999 1.8446 3.5628 
183 31.178 53.221 85.150 25.329 24.985 69.448 
184 3.9894 31.619 16.401 4.4227 7.0005 4.1309 
185 59.792 66.224 9.7174 28.102 35.766 7.1820 
186 92.101 39.074 36.714 41.336 28.213 14.528 
187 38.778 85.969 96.485 47.694 60.476 96.395 
188 0.91154 41.206 86.582 18.931 16.188 70.582 
189 28.151 66.625 56.527 22.837 32.774 32.170 
190 10.010 14.222 98.061 19.135 9.3124 91.260 
191 86.262 98.110 18.260 64.613 84.056 16.300 
192 50.630 24.750 21.849 12.445 9.4412 5.6957 
193 51.133 1.2965 85.560 22.762 10.821 67.557 
194 67.535 41.884 14.517 23.407 20.211 5.2629 
195 3.8103 85.237 62.798 32.071 52.886 42.376 
196 45.647 67.140 70.088 30.669 36.825 48.443 
197 62.387 43.828 31.330 22.314 20.299 11.098 
198 14.662 95.876 82.283 45.439 70.334 72.310 
199 91.256 88.147 86.661 73.692 76.460 79.472 
200 16.296 3.4043 82.111 13.462 6.2407 61.339 
201 89.745 39.116 9.4904 37.598 26.511 4.8635 
202 15.022 94.550 35.001 34.771 64.469 20.887 
203 34.773 9.0299 54.090 9.8885 5.5092 25.187 
204 42.451 98.044 63.777 47.516 74.468 46.875 
205 13.395 96.743 60.788 40.356 69.351 42.835 
206 36.109 39.745 9.8181 10.193 12.608 3.6693 
207 37.666 3.3956 10.267 6.0606 3.7258 2.2379 
208 69.718 33.869 52.783 26.753 18.714 25.615 
209 34.761 38.752 48.765 13.069 13.335 21.744 
210 86.070 83.166 3.5707 53.443 62.656 10.398 
211 1.5581 14.390 38.118 3.8405 3.1746 12.519 
212 40.258 69.778 88.052 35.641 40.686 77.048 
213 56.692 35.635 1.7934 16.203 14.316 2.8998 
214 68.795 72.632 30.790 37.200 45.063 14.833 
215 26.430 52.435 69.480 19.594 22.144 45.383 
216 33.122 17.428 38.746 7.7893 5.5915 13.169 
217 62.199 52.158 89.861 37.406 30.474 78.287 
218 25.787 30.175 17.745 6.3058 7.5748 4.4734 
219 15.491 37.884 92.268 20.931 15.782 80.853 
220 32.443 47.696 33.808 13.025 17.165 12.250 
221 67.711 58.391 42.783 31.351 32.101 19.760 
222 33.720 98.203 86.138 51.518 75.997 79.631 
223 12.220 70.657 55.019 22.467 35.558 31.225 
224 62.460 90.133 36.358 45.125 65.039 21.227 
225 96.881 56.516 40.188 51.283 41.329 18.709 
226 6.7879 84.775 88.900 39.278 55.302 81.215 
227 76.399 2.6484 15.083 23.661 12.751 3.9297 
228 17.436 94.572 13.333 33.524 64.025 12.951 
229 54.886 25.828 64.721 20.349 13.049 37.577 
230 18.646 0.15469 58.195 7.5134 3.7489 29.096 
231 55.779 4.2213 64.713 18.926 9.6369 36.983 
232 51.239 63.863 26.988 24.214 32.052 11.318 
233 66.741 13.676 36.861 20.045 11.466 12.503 
234 93.599 39.566 97.573 57.632 35.068 93.194 
235 90.334 30.249 61.063 41.975 25.356 34.564 
236 25.590 23.903 67.237 12.145 8.3481 40.211 
237 72.408 75.106 61.657 45.326 50.698 39.947 
238 46.710 36.665 33.627 14.119 13.389 11.367 
239 68.223 35.431 88.302 35.404 22.595 74.021 
240 16.059 15.547 0.82670 2.6543 2.9491 1.3491 
241 43.468 66.155 50.946 25.446 33.908 26.949 
242 62.609 89.485 55.286 47.562 65.298 35.907 
243 77.273 27.075 18.035 26.407 17.174 5.3426 
244 81.650 1.8233 79.975 37.645 18.721 59.023 
245 1.8023 83.887 33.552 26.489 49.253 17.598 
246 24.964 68.570 15.717 18.602 32.515 8.1514 
247 88.372 49.719 86.763 52.291 37.059 73.173 
248 95.530 63.704 64.235 57.287 48.357 41.864 
249 85.492 96.170 65.017 68.822 83.266 48.936 
250 90.508 65.794 94.004 62.915 51.641 88.931 
END_DATA
CTI1   

DESCRIPTOR "Argyll Calibration Target chart information 1"
ORIGINATOR "Argyll targen"
KEYWORD "DENSITY_EXTREME_VALUES"
DENSITY_EXTREME_VALUES "8"
CREATED "November 7, 2011"

KEYWORD "INDEX"
NUMBER_OF_FIELDS 7
BEGIN_DATA_FORMAT
INDEX RGB_R RGB_G RGB_B XYZ_X XYZ_Y XYZ_Z 
END_DATA_FORMAT

NUMBER_OF_SETS 8
BEGIN_DATA
0 100.00 100.00 100.00 95.106 100.00 108.84 
1 0.0000 47.361 100.00 25.613 21.629 97.376 
2 100.00 0.0000 79.351 52.426 26.290 58.722 
3 0.0000 0.0000 58.997 6.4858 3.1940 29.894 
4 100.00 66.659 0.0000 56.059 50.505 7.6561 
5 0.0000 35.601 0.0000 4.6856 8.3702 2.2286 
6 84.444 0.0000 0.0000 28.843 15.356 2.3047 
7 0.0000 0.0000 0.0000 1.0000 1.0000 1.0000 
END_DATA
CTI1   

DESCRIPTOR "Argyll Calibration Target chart information 1"
ORIGINATOR "Argyll targen"
KEYWORD "DEVICE_COMBINATION_VALUES"
DEVICE_COMBINATION_VALUES "9"
CREATED "November 7, 2011"

KEYWORD "INDEX"
NUMBER_OF_FIELDS 7
BEGIN_DATA_FORMAT
INDEX RGB_R RGB_G RGB_B XYZ_X XYZ_Y XYZ_Z 
END_DATA_FORMAT

NUMBER_OF_SETS 9
BEGIN_DATA
0 100.00 100.00 100.00 95.106 100.00 108.84 
1 0.0000 100.00 100.00 54.276 78.948 106.93 
2 100.00 0.0000 100.00 59.701 29.199 97.042 
3 0.0000 0.0000 100.00 18.871 8.1473 95.129 
4 100.00 100.00 0.0000 77.235 92.853 14.715 
5 0.0000 100.00 0.0000 36.405 71.801 12.802 
6 100.00 0.0000 0.0000 41.830 22.052 2.9132 
7 0.0000 0.0000 0.0000 1.0000 1.0000 1.0000 
8 60.000 60.000 60.000 30.977 32.536 35.353 
END_DATA
