data/ti1/display-short.ti1
CTI1   

DESCRIPTOR "Argyll Calibration Target chart information 1"
ORIGINATOR "Argyll targen"
CREATED "Mon Nov  7 19:19:44 2011"
KEYWORD "APPROX_WHITE_POINT"
APPROX_WHITE_POINT "95.106486 100.000000 108.844025"
KEYWORD "COLOR_REP"
COLOR_REP "RGB"
KEYWORD "WHITE_COLOR_PATCHES"
WHITE_COLOR_PATCHES "4"
KEYWORD "ERROR_OPTIMISED_PATCHES"
ERROR_OPTIMISED_PATCHES "96"

NUMBER_OF_FIELDS 7
BEGIN_DATA_FORMAT
SAMPLE_ID RGB_R RGB_G RGB_B XYZ_X XYZ_Y XYZ_Z 
END_DATA_FORMAT

NUMBER_OF_SETS 100
BEGIN_DATA
1 100.00 100.00 100.00 95.106 100.00 108.84 
2 100.00 100.00 100.00 95.106 100.00 108.84 
3 100.00 100.00 100.00 95.106 100.00 108.84 
4 100.00 100.00 100.00 95.106 100.00 108.84 
5 28.772 27.764 27.198 7.0407 7.2823 7.5274 
6 100.00 0.0000 100.00 59.701 29.199 97.042 
7 100.00 100.00 0.0000 77.235 92.853 14.715 
8 0.0000 100.00 100.00 54.276 78.948 106.93 
9 0.0000 100.00 0.0000 36.405 71.801 12.802 
10 0.0000 0.0000 100.00 18.871 8.1473 95.129 
11 100.00 0.0000 0.0000 41.830 22.052 2.9132 
12 0.0000 0.0000 0.0000 1.0000 1.0000 1.0000 
13 0.0000 51.187 100.00 26.844 24.091 97.787 
14 100.00 0.0000 50.187 45.686 23.594 23.224 
15 100.00 63.280 100.00 72.383 54.559 101.27 
16 100.00 51.159 0.0000 49.794 37.977 5.5678 
17 0.0000 49.409 0.0000 8.3858 15.769 3.4619 
18 0.0000 0.0000 49.104 4.6786 2.4712 20.376 
19 51.963 100.00 54.126 50.448 78.516 37.178 
20 100.00 100.00 51.063 81.239 94.454 35.801 
21 50.313 0.0000 0.0000 9.8582 5.5673 1.4151 
22 50.886 100.00 0.0000 45.483 76.481 13.227 
23 51.453 100.00 100.00 63.575 83.742 107.37 
24 50.297 0.0000 100.00 27.723 12.711 95.544 
25 0.0000 100.00 51.128 40.420 73.406 33.946 
26 100.00 48.416 54.883 53.583 38.062 29.936 
27 52.154 51.224 100.00 36.432 29.053 98.239 
28 49.331 0.0000 47.503 12.914 6.7465 19.438 
29 47.832 50.543 0.0000 16.700 20.608 3.9580 
30 0.0000 52.603 47.661 12.909 19.296 21.989 
31 100.00 34.339 100.00 63.121 36.038 98.182 
32 0.0000 28.135 73.662 12.248 9.1427 49.005 
33 73.914 27.308 0.0000 23.796 15.939 2.6829 
34 77.841 100.00 76.572 69.373 87.668 65.409 
35 53.022 58.296 58.856 26.969 29.470 33.737 
36 71.407 73.883 100.00 55.882 53.781 101.99 
37 76.047 0.0000 25.342 23.941 12.720 6.9500 
38 100.00 71.467 27.803 59.564 55.718 14.364 
39 25.719 75.800 0.0000 22.141 40.016 7.4178 
40 26.301 77.056 100.00 40.822 48.634 101.79 
41 72.606 100.00 27.610 57.356 82.475 19.564 
42 100.00 77.660 71.432 70.207 65.399 53.694 
43 75.152 0.0000 72.448 31.074 15.507 47.529 
44 24.078 0.0000 23.156 3.7125 2.3080 5.2136 
45 25.462 24.773 100.00 22.794 12.796 95.820 
46 26.503 24.530 0.0000 5.0669 5.6725 1.6877 
47 100.00 25.607 25.047 44.631 26.194 8.3494 
48 0.0000 76.556 24.570 21.248 40.085 12.085 
49 25.782 100.00 26.239 39.613 73.339 18.174 
50 74.740 74.854 0.0000 40.589 48.750 8.1319 
51 25.201 100.00 76.250 48.205 76.764 63.938 
52 26.671 0.0000 74.235 12.487 5.8673 49.180 
53 0.0000 24.390 25.590 3.6680 4.8123 6.5864 
54 67.712 47.006 35.616 26.485 23.770 13.815 
55 36.294 63.691 27.004 19.348 29.429 11.074 
56 86.379 40.968 77.726 45.365 30.048 57.300 
57 0.0000 73.933 77.548 28.980 40.854 59.977 
58 32.364 29.191 68.352 14.537 10.743 41.974 
59 70.542 28.186 100.00 39.765 22.314 96.763 
60 70.734 72.086 42.695 39.381 45.605 21.881 
61 26.676 75.434 64.884 28.867 42.398 42.991 
62 100.00 20.313 72.311 51.644 27.908 48.649 
63 68.876 15.862 50.469 23.314 13.191 22.641 
64 17.881 50.961 71.234 18.318 20.686 47.525 
65 10.084 49.581 28.410 10.029 16.564 9.6758 
66 49.201 13.285 24.451 10.874 6.8256 6.1679 
67 77.725 65.847 76.909 47.835 44.556 58.729 
68 56.660 83.887 75.397 45.706 58.259 59.234 
69 18.189 22.889 47.409 7.0595 5.9803 19.522 
70 54.711 80.738 20.851 34.091 50.378 12.144 
71 74.508 54.899 12.492 31.563 30.508 6.4291 
72 29.846 51.232 46.781 15.261 19.825 21.257 
73 44.683 20.605 88.985 22.819 12.504 73.976 
74 22.285 49.677 8.9550 10.285 16.860 4.3667 
75 49.915 28.217 1.7597 12.023 10.081 2.3000 
76 93.444 48.780 27.148 44.259 33.843 10.674 
77 77.625 50.168 97.559 48.571 34.902 93.611 
78 23.805 3.8859 2.5450 3.0290 2.2001 1.3093 
79 19.714 82.591 42.535 27.987 48.687 22.962 
80 80.266 94.919 8.4798 57.429 76.754 13.384 
81 48.290 31.594 46.330 15.234 12.240 19.437 
82 10.331 13.937 86.668 14.964 7.6118 69.287 
83 96.858 96.473 72.463 80.250 89.289 59.202 
84 76.439 51.546 57.485 36.538 30.738 32.036 
85 58.876 16.244 71.147 22.578 12.352 45.573 
86 24.751 1.3441 50.853 7.0414 3.7107 22.006 
87 87.906 84.024 93.159 70.572 70.543 90.526 
88 43.762 65.766 82.435 32.917 36.617 66.711 
89 5.4889 96.087 23.828 34.342 66.085 16.146 
90 25.545 51.680 94.291 26.945 24.650 86.178 
91 28.003 93.930 94.310 49.959 70.014 93.760 
92 0.0000 84.212 62.658 31.257 51.486 41.986 
93 76.324 25.093 23.571 25.811 16.392 6.9125 
94 48.105 42.344 22.646 15.097 16.058 7.0951 
95 73.933 90.323 55.676 54.599 69.788 36.788 
96 58.843 42.170 75.019 28.066 21.682 52.549 
97 90.419 25.465 51.073 39.363 23.089 24.240 
98 45.214 78.148 45.767 31.484 46.456 24.745 
99 93.753 72.803 50.990 57.569 55.398 29.444 
100 3.3536 36.661 51.193 9.0491 10.499 23.513 
END_DATA
CTI1   

DESCRIPTOR "Argyll Calibration Target chart information 1"
ORIGINATOR "Argyll targen"
KEYWORD "DENSITY_EXTREME_VALUES"
DENSITY_EXTREME_VALUES "8"
CREATED "November 7, 2011"

KEYWORD "INDEX"
NUMBER_OF_FIELDS 7
BEGIN_DATA_FORMAT
INDEX RGB_R RGB_G RGB_B XYZ_X XYZ_Y XYZ_Z 
END_DATA_FORMAT

NUMBER_OF_SETS 8
BEGIN_DATA
0 100.00 100.00 100.00 95.106 100.00 108.84 
1 0.0000 47.361 100.00 25.613 21.629 97.376 
2 100.00 0.0000 79.351 52.426 26.290 58.722 
3 0.0000 0.0000 58.997 6.4858 3.1940 29.894 
4 100.00 66.659 0.0000 56.059 50.505 7.6561 
5 0.0000 35.601 0.0000 4.6856 8.3702 2.2286 
6 84.444 0.0000 0.0000 28.843 15.356 2.3047 
7 0.0000 0.0000 0.0000 1.0000 1.0000 1.0000 
END_DATA
CTI1   

DESCRIPTOR "Argyll Calibration Target chart information 1"
ORIGINATOR "Argyll targen"
KEYWORD "DEVICE_COMBINATION_VALUES"
DEVICE_COMBINATION_VALUES "9"
CREATED "November 7, 2011"

KEYWORD "INDEX"
NUMBER_OF_FIELDS 7
BEGIN_DATA_FORMAT
INDEX RGB_R RGB_G RGB_B XYZ_X XYZ_Y XYZ_Z 
END_DATA_FORMAT

NUMBER_OF_SETS 9
BEGIN_DATA
0 100.00 100.00 100.00 95.106 100.00 108.84 
1 0.0000 100.00 100.00 54.276 78.948 106.93 
2 100.00 0.0000 100.00 59.701 29.199 97.042 
3 0.0000 0.0000 100.00 18.871 8.1473 95.129 
4 100.00 100.00 0.0000 77.235 92.853 14.715 
5 0.0000 100.00 0.0000 36.405 71.801 12.802 
6 100.00 0.0000 0.0000 41.830 22.052 2.9132 
7 0.0000 0.0000 0.0000 1.0000 1.0000 1.0000 
8 60.000 60.000 60.000 30.977 32.536 35.353 
END_DATA
