data/ti1/display-long.ti1
CTI1   

DESCRIPTOR "Argyll Calibration Target chart information 1"
ORIGINATOR "Argyll targen"
CREATED "Mon Nov  7 19:20:31 2011"
KEYWORD "APPROX_WHITE_POINT"
APPROX_WHITE_POINT "95.106486 100.000000 108.844025"
KEYWORD "COLOR_REP"
COLOR_REP "RGB"
KEYWORD "WHITE_COLOR_PATCHES"
WHITE_COLOR_PATCHES "4"
KEYWORD "ERROR_OPTIMISED_PATCHES"
ERROR_OPTIMISED_PATCHES "496"

NUMBER_OF_FIELDS 7
BEGIN_DATA_FORMAT
SAMPLE_ID RGB_R RGB_G RGB_B XYZ_X XYZ_Y XYZ_Z 
END_DATA_FORMAT

NUMBER_OF_SETS 500
BEGIN_DATA
1 100.00 100.00 100.00 95.106 100.00 108.84 
2 100.00 100.00 100.00 95.106 100.00 108.84 
3 100.00 100.00 100.00 95.106 100.00 108.84 
4 100.00 100.00 100.00 95.106 100.00 108.84 
5 32.475 31.776 34.651 9.1896 9.3458 11.400 
6 100.00 0.0000 100.00 59.701 29.199 97.042 
7 100.00 100.00 0.0000 77.235 92.853 14.715 
8 0.0000 100.00 100.00 54.276 78.948 106.93 
9 0.0000 100.00 0.0000 36.405 71.801 12.802 
10 0.0000 0.0000 100.00 18.871 8.1473 95.129 
11 100.00 0.0000 0.0000 41.830 22.052 2.9132 
12 0.0000 0.0000 0.0000 1.0000 1.0000 1.0000 
13 0.0000 55.324 100.00 28.313 27.028 98.276 
14 100.00 0.0000 49.521 45.577 23.550 22.646 
15 100.00 59.960 100.00 70.963 51.720 100.80 
16 100.00 54.487 0.0000 50.963 40.315 5.9575 
17 0.0000 52.092 0.0000 9.2821 17.562 3.7607 
18 0.0000 0.0000 56.158 5.9241 2.9693 26.936 
19 0.0000 100.00 51.179 40.428 73.409 33.992 
20 100.00 100.00 51.651 81.339 94.494 36.331 
21 50.852 0.0000 0.0000 10.065 5.6739 1.4248 
22 51.889 100.00 0.0000 45.875 76.683 13.246 
23 50.406 100.00 100.00 63.170 83.533 107.35 
24 50.234 0.0000 100.00 27.699 12.699 95.543 
25 100.00 47.468 53.533 53.041 37.374 28.535 
26 49.820 45.732 100.00 33.797 25.125 97.620 
27 49.611 100.00 38.725 47.216 77.118 24.887 
28 55.315 0.0000 44.257 14.828 7.7891 17.011 
29 49.154 53.385 0.0000 18.158 22.811 4.3064 
30 0.0000 59.312 51.026 15.993 24.588 25.719 
31 100.00 22.881 100.00 61.217 32.230 97.547 
32 0.0000 34.085 100.00 22.239 14.882 96.252 
33 0.0000 0.0000 18.064 1.4895 1.1958 3.5781 
34 0.0000 32.094 0.0000 3.9754 6.9501 1.9918 
35 72.629 0.0000 100.00 38.729 18.386 96.059 
36 100.00 35.093 0.0000 45.407 29.206 4.1056 
37 74.824 100.00 100.00 75.499 89.890 107.93 
38 100.00 0.0000 25.304 42.761 22.425 7.8176 
39 76.224 0.0000 0.0000 23.122 12.406 2.0366 
40 100.00 100.00 26.647 78.267 93.265 20.148 
41 0.0000 78.371 100.00 39.285 48.970 101.93 
42 0.0000 76.136 0.0000 20.133 39.261 7.3777 
43 0.0000 100.00 26.241 37.406 72.201 18.072 
44 100.00 0.0000 74.313 50.978 25.711 51.096 
45 0.0000 100.00 75.602 45.912 75.603 62.873 
46 25.130 0.0000 0.0000 3.0986 2.0820 1.0983 
47 25.361 100.00 0.0000 38.542 72.902 12.902 
48 100.00 76.881 0.0000 61.384 61.155 9.4314 
49 100.00 100.00 76.472 86.989 96.753 66.086 
50 0.0000 30.199 69.132 11.415 9.3696 42.890 
51 0.0000 0.0000 78.249 11.268 5.1067 55.084 
52 73.745 100.00 0.0000 56.950 82.394 13.765 
53 100.00 70.081 34.304 59.455 54.540 17.287 
54 35.027 71.937 100.00 39.836 43.972 100.94 
55 70.029 68.703 100.00 52.394 48.013 101.06 
56 100.00 80.093 100.00 81.136 72.062 104.19 
57 24.066 100.00 100.00 56.204 79.942 107.02 
58 0.0000 28.596 37.144 5.3860 6.5194 12.490 
59 24.605 0.0000 100.00 20.884 9.1854 95.223 
60 53.879 62.634 54.689 28.322 32.950 30.092 
61 32.396 100.00 70.897 48.139 76.898 56.346 
62 69.273 100.00 68.271 61.850 84.044 53.527 
63 33.070 30.256 0.0000 7.2873 8.1572 2.0504 
64 100.00 74.865 69.808 68.213 62.081 50.968 
65 70.122 30.828 0.0000 22.103 15.948 2.7740 
66 69.177 0.0000 33.384 20.445 10.837 10.413 
67 31.032 0.0000 25.580 5.1546 3.0321 6.1606 
68 33.242 68.436 0.0000 19.772 33.065 6.2008 
69 30.701 0.0000 70.441 12.253 5.8629 43.909 
70 100.00 26.568 29.708 45.145 26.628 10.349 
71 69.352 0.0000 79.146 29.451 14.451 57.325 
72 0.0000 76.114 26.264 21.123 39.637 12.653 
73 71.340 73.642 0.0000 37.840 46.353 7.8141 
74 78.448 27.675 100.00 44.669 24.720 96.969 
75 100.00 22.902 73.149 52.179 28.620 49.933 
76 71.213 100.00 25.435 56.350 81.976 18.647 
77 27.856 26.099 100.00 23.407 13.396 95.903 
78 32.574 100.00 30.106 41.261 74.152 19.911 
79 0.0000 78.622 76.270 31.257 45.994 58.921 
80 37.656 37.497 68.647 17.551 14.742 42.971 
81 65.720 28.719 56.582 24.280 15.948 28.901 
82 0.0000 54.464 23.998 10.963 19.582 8.4614 
83 70.214 51.676 28.901 28.769 27.256 10.969 
84 70.146 52.958 0.0000 27.961 27.640 4.7224 
85 20.404 53.986 100.00 29.225 26.770 98.178 
86 0.0000 56.580 78.950 21.392 25.020 59.482 
87 26.696 61.968 29.727 16.759 26.948 11.914 
88 100.00 51.327 80.914 60.921 42.518 63.893 
89 31.592 100.00 51.572 43.818 75.149 34.502 
90 100.00 50.701 22.627 50.389 37.969 9.4596 
91 19.953 51.218 0.0000 10.329 17.658 3.7242 
92 82.029 44.364 100.00 50.814 33.315 98.305 
93 100.00 25.557 51.530 47.794 27.447 25.046 
94 77.891 0.0000 49.370 27.942 14.461 21.691 
95 57.839 83.808 100.00 54.607 61.799 103.60 
96 28.543 67.251 72.631 26.907 34.887 51.745 
97 52.812 0.0000 80.008 21.634 10.390 58.312 
98 55.871 100.00 19.087 48.072 77.753 16.178 
99 21.616 0.0000 49.092 6.2431 3.2781 20.439 
100 0.0000 83.180 59.204 29.865 49.878 37.897 
101 79.150 79.371 51.340 50.125 57.032 30.464 
102 0.0000 18.070 17.692 2.4415 3.1288 3.8051 
103 58.560 26.403 25.548 16.286 11.750 7.2448 
104 51.445 0.0000 23.703 11.115 6.1204 5.7502 
105 49.715 22.001 0.0000 11.037 8.2603 1.8728 
106 48.680 24.592 100.00 28.864 15.888 96.097 
107 72.375 51.652 72.940 37.608 30.927 50.851 
108 79.344 100.00 49.339 64.324 85.766 33.512 
109 48.269 78.595 0.0000 29.644 46.260 8.2279 
110 57.910 74.198 32.510 32.635 43.937 15.706 
111 100.00 80.534 51.078 67.536 67.049 31.246 
112 51.132 100.00 80.447 56.505 80.900 70.785 
113 72.261 76.618 73.224 48.890 53.468 55.008 
114 17.371 14.556 0.0000 2.6997 2.8539 1.2683 
115 0.0000 17.041 82.869 13.552 7.4147 62.813 
116 100.00 79.138 20.871 63.337 64.033 13.246 
117 0.0000 19.871 51.064 6.1614 4.9167 22.473 
118 0.0000 17.707 100.00 19.806 10.017 95.441 
119 0.0000 38.715 51.672 9.4992 11.425 24.099 
120 0.0000 0.0000 37.634 3.0889 1.8354 12.002 
121 82.280 84.573 100.00 69.359 70.134 104.43 
122 85.136 100.00 85.936 77.442 91.493 80.903 
123 82.619 17.624 0.0000 28.433 16.520 2.5510 
124 84.536 0.0000 16.830 29.341 15.563 4.5738 
125 85.402 11.804 100.00 47.893 23.797 96.621 
126 25.501 49.698 51.058 14.642 18.671 24.676 
127 52.596 59.952 80.549 32.969 32.924 62.926 
128 58.299 31.793 78.596 26.500 17.280 57.168 
129 52.440 65.944 100.00 42.454 40.925 100.21 
130 100.00 15.649 16.103 42.976 23.707 5.2556 
131 15.179 100.00 84.754 49.510 77.136 77.560 
132 42.955 78.302 57.469 32.862 47.066 35.365 
133 16.609 84.893 100.00 44.264 57.502 103.32 
134 0.0000 15.516 0.0000 1.7369 2.4735 1.2456 
135 50.288 48.358 24.502 17.774 20.013 8.3683 
136 86.958 0.0000 87.131 43.825 21.568 71.280 
137 35.848 17.999 51.623 10.375 6.7892 23.114 
138 85.652 87.248 0.0000 55.738 67.794 11.010 
139 15.971 0.0000 12.471 2.1500 1.5634 2.3874 
140 75.264 72.210 22.698 40.254 46.380 11.641 
141 100.00 17.076 0.0000 42.705 23.802 3.2049 
142 100.00 86.414 84.770 79.555 77.825 76.138 
143 14.604 100.00 39.831 39.523 73.136 25.233 
144 100.00 64.589 14.542 55.430 48.718 9.0842 
145 87.710 0.0000 35.631 33.195 17.384 12.237 
146 16.284 0.0000 84.906 14.263 6.4116 66.025 
147 87.243 100.00 66.238 73.454 90.084 51.506 
148 100.00 67.773 85.096 68.991 56.530 73.144 
149 0.0000 39.639 84.494 17.818 15.109 66.812 
150 14.823 100.00 63.521 43.644 74.786 46.838 
151 79.631 38.518 23.152 30.527 22.582 7.7133 
152 16.016 81.698 16.913 24.745 46.455 10.799 
153 78.514 54.173 55.420 38.441 33.135 30.311 
154 46.879 37.816 43.390 15.608 14.410 17.611 
155 14.866 36.596 20.208 6.2948 9.4534 5.5156 
156 100.00 40.470 100.00 64.523 38.842 98.649 
157 50.136 100.00 61.206 51.144 78.712 44.541 
158 24.127 21.955 77.071 14.262 8.7669 53.833 
159 84.321 41.838 0.0000 33.924 25.654 4.0248 
160 43.124 81.985 81.108 41.081 53.903 67.450 
161 100.00 12.079 87.044 55.359 28.231 71.804 
162 13.873 68.094 100.00 34.487 38.337 100.13 
163 78.597 26.024 70.760 34.845 20.396 45.955 
164 16.528 73.657 51.363 23.774 38.643 28.323 
165 80.492 20.716 37.822 29.360 17.237 13.707 
166 87.013 100.00 14.257 66.515 87.288 15.887 
167 0.0000 65.675 11.876 15.003 28.625 6.8303 
168 100.00 12.711 38.655 44.562 23.981 14.725 
169 16.780 15.692 37.195 4.7676 3.8225 12.032 
170 15.944 100.00 15.864 37.684 72.415 14.881 
171 100.00 88.762 37.427 70.914 76.909 22.796 
172 55.032 37.500 0.0000 15.871 14.764 2.8736 
173 33.533 17.661 16.970 6.1220 4.9713 3.7862 
174 42.916 77.644 23.302 28.082 44.543 12.133 
175 100.00 55.301 37.610 53.349 41.750 17.045 
176 100.00 11.947 61.971 48.414 25.439 35.267 
177 20.071 32.184 54.862 10.032 9.5571 26.707 
178 100.00 65.185 51.346 59.423 50.750 28.767 
179 16.656 34.662 0.0000 5.4514 8.4700 2.2075 
180 21.013 49.639 80.860 20.998 21.105 61.775 
181 0.0000 87.768 39.416 29.642 54.594 21.905 
182 16.719 38.004 100.00 24.066 17.095 96.582 
183 36.815 0.0000 87.426 18.737 8.6208 70.628 
184 55.885 66.850 16.636 26.872 35.542 8.5138 
185 100.00 89.432 65.057 76.117 79.730 47.917 
186 38.362 0.0000 11.445 6.1898 3.6502 2.4013 
187 56.778 17.284 61.002 19.322 11.091 32.935 
188 85.191 64.454 0.0000 42.608 42.054 6.7332 
189 64.311 12.719 0.0000 16.679 9.8604 1.8845 
190 38.331 100.00 12.953 41.637 74.467 14.468 
191 35.526 100.00 88.587 54.214 79.412 84.513 
192 46.243 14.237 34.470 10.760 6.7715 10.721 
193 37.024 87.667 100.00 49.755 63.061 104.10 
194 15.105 0.0000 63.767 8.3207 4.0216 35.328 
195 37.354 11.758 100.00 24.029 11.488 95.502 
196 82.829 31.609 87.969 43.906 25.857 73.603 
197 13.999 67.208 0.0000 16.200 30.341 5.8632 
198 83.405 41.083 42.426 35.744 25.990 18.095 
199 24.974 79.179 80.272 34.836 48.191 65.332 
200 0.0000 49.149 38.153 10.452 16.462 14.757 
201 33.244 83.310 42.321 30.784 50.804 23.072 
202 0.0000 13.623 65.668 8.5350 4.9534 37.789 
203 0.0000 88.938 87.538 41.357 60.559 79.663 
204 64.739 14.357 82.672 28.642 14.863 63.129 
205 0.0000 88.475 12.728 28.086 54.742 11.333 
206 68.127 81.869 62.984 47.074 57.442 42.681 
207 66.250 0.0000 14.675 17.523 9.4805 3.5346 
208 24.576 51.233 21.431 11.672 18.280 7.3094 
209 83.599 40.760 63.593 39.585 27.411 37.992 
210 65.771 89.485 15.298 44.810 64.388 12.830 
211 35.187 47.040 0.0000 11.792 16.425 3.4091 
212 44.235 55.711 37.507 19.377 24.463 15.435 
213 63.081 0.0000 60.593 21.340 10.815 32.321 
214 0.0000 38.473 12.667 5.5964 9.7721 3.8258 
215 16.098 15.861 100.00 20.545 10.147 95.427 
216 11.586 52.533 62.404 16.159 20.617 36.530 
217 35.365 12.333 0.0000 5.6888 4.1549 1.3620 
218 42.438 20.841 83.422 20.273 11.446 64.161 
219 51.021 47.197 64.258 23.444 21.737 38.536 
220 83.656 62.576 87.869 53.963 45.128 76.612 
221 71.851 19.699 19.160 22.071 13.492 5.1636 
222 84.984 0.0000 65.681 36.196 18.343 38.933 
223 40.897 28.064 12.921 9.2230 8.5722 3.4498 
224 59.703 49.060 85.333 33.617 27.169 69.749 
225 16.374 0.0000 33.002 3.5258 2.1184 9.4206 
226 34.757 87.124 0.0000 30.950 54.889 9.8248 
227 37.350 39.562 87.916 23.640 17.951 73.047 
228 63.802 44.364 46.087 24.963 21.682 20.556 
229 10.236 57.358 39.560 13.961 22.578 16.644 
230 0.0000 35.578 26.082 5.6693 8.7558 7.4336 
231 17.722 62.611 84.383 26.634 31.194 69.263 
232 62.409 11.951 47.189 19.032 10.607 19.607 
233 0.0000 14.544 35.169 3.4715 3.0406 10.773 
234 19.406 41.775 34.486 9.1757 12.667 11.951 
235 79.777 60.153 18.900 37.374 36.525 8.7316 
236 63.623 100.00 47.046 54.560 80.773 31.164 
237 87.537 60.724 71.348 51.129 43.066 50.274 
238 42.536 61.936 10.799 19.476 28.453 6.3857 
239 37.796 63.067 54.300 22.978 30.484 29.520 
240 15.598 85.800 0.0000 26.884 51.488 9.3823 
241 86.020 65.812 100.00 61.730 50.772 101.10 
242 23.106 84.011 66.670 33.831 52.515 46.880 
243 65.297 85.604 87.638 54.823 64.170 79.828 
244 67.066 45.170 15.989 24.115 21.912 5.8760 
245 0.0000 66.354 64.336 21.724 31.820 40.666 
246 62.256 65.741 44.305 31.855 37.046 21.798 
247 17.513 78.133 29.858 23.628 42.609 14.636 
248 64.226 69.424 88.937 45.383 45.411 79.052 
249 59.580 69.217 71.128 37.572 41.856 50.453 
250 21.074 12.343 55.936 7.8714 4.7166 26.947 
251 84.274 63.362 38.420 43.616 41.595 18.028 
252 62.474 87.305 0.0000 41.244 60.377 10.342 
253 84.283 18.448 54.800 34.399 19.177 27.220 
254 69.116 90.308 40.447 49.307 67.322 24.002 
255 30.926 58.642 88.611 28.492 29.521 76.281 
256 47.720 28.909 58.390 16.671 12.030 30.419 
257 39.749 14.998 63.146 13.419 7.6962 35.040 
258 0.0000 67.550 89.987 29.721 35.930 79.978 
259 89.574 75.731 82.040 63.133 59.774 68.940 
260 86.697 80.315 65.298 58.975 62.108 45.713 
261 16.436 61.381 16.791 14.227 25.368 7.2531 
262 85.953 86.224 27.739 56.400 66.992 16.680 
263 37.704 0.0000 40.279 8.2005 4.4339 13.916 
264 66.793 67.631 59.630 37.791 41.126 36.250 
265 54.824 18.662 14.645 13.041 8.6978 3.6133 
266 15.856 85.424 46.389 29.918 52.309 26.445 
267 78.420 13.954 88.332 38.677 19.774 73.358 
268 66.218 52.847 100.00 43.585 33.572 98.735 
269 55.262 66.012 0.0000 25.786 34.445 6.1504 
270 87.057 100.00 35.825 68.113 87.931 24.126 
271 37.968 50.010 64.094 20.028 21.301 38.436 
272 0.0000 71.165 41.648 20.041 34.939 20.107 
273 13.863 75.674 63.319 26.982 41.667 41.085 
274 100.00 34.925 85.150 57.789 34.101 69.497 
275 59.853 89.939 74.953 51.098 67.064 60.001 
276 15.815 18.533 18.405 3.4024 3.6890 4.0487 
277 100.00 38.560 67.069 53.465 33.672 42.711 
278 62.077 14.219 100.00 33.522 16.640 95.997 
279 100.00 36.706 16.379 46.168 30.071 6.3803 
280 85.017 48.878 30.257 37.818 30.538 11.744 
281 10.564 32.728 87.210 17.648 12.665 71.080 
282 74.050 38.510 74.068 35.159 24.008 51.249 
283 28.559 37.086 45.808 10.889 11.688 19.151 
284 55.143 26.668 42.014 16.492 11.721 16.065 
285 6.5748 86.598 70.610 34.941 55.481 52.519 
286 63.314 35.580 100.00 37.194 23.058 97.042 
287 86.289 15.919 24.805 31.899 17.973 7.3425 
288 32.967 16.304 32.675 6.9887 5.1021 9.6454 
289 42.366 0.0000 57.813 12.374 6.2576 28.925 
290 69.834 37.288 37.870 25.371 19.345 14.353 
291 86.096 74.507 11.930 48.552 52.545 9.6898 
292 45.387 87.587 35.144 36.125 57.811 19.611 
293 0.0000 46.167 65.842 14.371 16.557 39.936 
294 44.210 65.082 25.032 22.114 31.807 10.613 
295 14.386 31.939 74.487 13.886 10.953 50.453 
296 100.00 59.082 66.302 59.830 46.692 43.928 
297 13.264 28.287 31.616 5.4066 6.5212 9.4693 
298 89.829 27.774 9.9105 35.408 22.015 4.1704 
299 30.383 34.090 20.293 8.0451 9.5617 5.4694 
300 54.153 42.175 35.155 18.466 17.606 12.786 
301 64.325 16.027 33.808 18.616 11.048 10.774 
302 89.179 14.029 79.818 43.845 22.766 59.230 
303 37.634 56.352 100.00 33.473 30.263 98.629 
304 49.598 42.060 75.462 24.287 19.676 53.011 
305 61.817 39.116 68.643 27.042 20.201 43.519 
306 26.453 11.237 87.074 16.809 8.2737 70.036 
307 53.853 79.735 16.211 32.889 48.889 10.673 
308 44.198 70.222 39.770 26.024 37.338 18.994 
309 10.036 48.420 12.099 8.7252 15.449 4.6559 
310 33.618 43.820 30.244 11.813 14.893 10.088 
311 12.860 11.708 74.942 11.392 5.9569 50.280 
312 52.858 83.936 44.528 37.657 54.903 25.106 
313 46.093 72.172 91.644 39.974 44.597 84.220 
314 44.752 22.624 25.177 10.290 7.8839 6.6728 
315 8.7364 77.343 89.511 35.052 46.363 80.833 
316 90.628 89.738 52.511 65.609 74.924 34.167 
317 82.572 47.621 14.747 34.634 28.427 6.3058 
318 35.165 71.028 84.082 33.596 40.727 70.224 
319 68.621 61.154 11.385 30.481 33.630 6.8990 
320 71.714 13.006 57.716 26.075 14.130 29.621 
321 88.166 88.010 77.836 68.340 73.883 64.719 
322 11.182 52.174 89.470 23.684 23.423 76.928 
323 34.469 40.726 100.00 27.732 19.968 96.944 
324 92.097 91.005 93.302 78.727 81.738 92.535 
325 8.9412 9.4275 47.329 5.0676 3.1854 19.022 
326 89.890 49.925 89.953 54.671 38.257 79.052 
327 58.300 88.114 27.666 40.898 60.884 16.286 
328 60.832 29.287 9.2981 17.036 12.915 3.2956 
329 89.516 76.337 41.854 54.620 56.908 22.668 
330 91.647 7.4411 8.4104 34.865 18.786 3.3740 
331 50.683 35.607 89.299 27.512 18.542 75.470 
332 66.739 100.00 86.407 65.692 85.417 81.174 
333 7.1007 9.4062 13.003 1.8461 1.8841 2.5626 
334 45.765 60.046 64.681 26.239 30.002 40.491 
335 100.00 89.719 10.094 69.694 77.481 13.098 
336 48.915 14.499 49.631 13.753 8.1112 21.436 
337 11.835 47.664 51.125 12.384 16.549 24.445 
338 30.527 26.747 61.966 12.268 9.1587 34.021 
339 28.007 71.045 17.169 20.442 35.302 8.9359 
340 70.964 28.050 83.115 33.880 19.953 64.573 
341 75.824 91.369 58.313 57.058 72.098 39.805 
342 26.888 90.390 16.684 31.975 58.703 12.727 
343 10.845 37.818 43.006 8.4142 10.707 16.998 
344 42.221 91.862 53.632 40.737 64.311 34.477 
345 58.376 60.069 28.779 25.756 30.406 11.681 
346 89.093 35.922 77.370 46.189 28.714 56.456 
347 26.452 40.765 62.129 14.366 14.447 35.118 
348 43.446 91.049 68.515 43.716 64.615 51.048 
349 40.720 26.900 42.164 11.370 9.1305 15.940 
350 87.905 69.879 55.743 52.128 50.250 33.213 
351 65.409 53.929 57.937 30.937 29.079 32.482 
352 78.801 33.425 52.448 32.310 21.453 25.542 
353 100.00 39.684 38.977 48.705 32.203 16.298 
354 48.617 88.804 91.726 50.963 65.204 87.775 
355 71.974 64.528 77.750 43.823 41.560 59.639 
356 38.316 77.242 69.008 33.472 46.173 48.671 
357 11.763 49.290 28.335 10.044 16.433 9.6174 
358 10.461 90.780 25.968 30.847 58.466 15.658 
359 43.295 14.405 9.8131 8.2370 5.6712 2.4326 
360 26.224 56.884 41.778 15.919 23.281 18.163 
361 10.738 22.041 65.500 9.7756 6.8182 37.877 
362 9.4067 11.020 26.661 2.8188 2.4320 6.5941 
363 51.443 4.0246 64.570 17.098 8.6896 36.725 
364 24.169 60.704 59.860 20.179 27.407 34.779 
365 7.5550 91.536 98.630 47.557 65.992 101.89 
366 74.141 8.6727 42.389 24.763 13.367 16.211 
367 37.503 49.866 78.481 23.609 22.644 58.178 
368 47.697 51.029 52.366 21.042 22.599 26.280 
369 47.372 9.1134 89.748 23.070 11.219 75.116 
370 25.260 24.236 44.837 7.8410 6.6926 17.603 
371 33.585 91.552 78.589 44.114 65.038 65.448 
372 24.003 40.498 90.218 21.896 17.304 77.225 
373 68.196 12.701 70.779 26.988 14.225 45.203 
374 78.666 77.141 88.838 58.109 58.106 80.652 
375 6.1318 5.6856 90.874 15.751 7.1826 76.821 
376 70.722 57.203 90.176 44.005 36.612 79.710 
377 74.464 52.596 42.367 33.134 29.809 18.929 
378 52.312 73.131 49.822 31.920 42.454 27.273 
379 61.648 96.067 94.996 63.029 79.109 96.188 
380 77.970 87.835 17.182 51.105 65.943 13.238 
381 61.171 99.405 35.413 51.340 78.580 22.970 
382 70.406 80.724 100.00 59.215 61.326 103.27 
383 91.059 9.8369 45.032 37.413 19.935 18.750 
384 44.100 35.706 28.452 12.558 12.327 8.7429 
385 47.684 90.364 9.4208 37.187 61.393 11.609 
386 36.603 44.637 14.875 11.786 15.334 5.0090 
387 65.315 75.218 13.130 35.584 46.435 9.4088 
388 88.647 72.550 27.411 50.337 51.805 13.930 
389 60.472 56.766 69.783 32.171 30.975 46.828 
390 92.939 39.207 25.608 41.039 28.227 9.1446 
391 53.915 3.7961 34.827 13.174 7.2258 10.878 
392 74.994 90.481 75.224 59.948 72.183 60.918 
393 22.256 8.7303 24.557 3.8235 2.7833 5.7978 
394 41.029 7.2582 22.688 7.6990 4.6971 5.3057 
395 66.972 38.613 26.291 22.952 18.684 8.5227 
396 91.715 27.345 41.361 39.254 23.622 16.713 
397 71.076 42.394 57.498 30.429 23.470 30.969 
398 82.544 89.678 41.118 57.622 70.944 24.714 
399 8.0814 26.268 11.057 3.4941 5.2096 2.7813 
400 90.755 26.577 64.894 42.564 24.665 38.859 
401 30.914 25.074 87.248 19.108 11.508 70.848 
402 29.254 88.075 89.976 44.454 61.180 84.056 
403 81.304 10.604 70.241 35.023 18.186 44.820 
404 56.298 54.953 14.371 21.940 25.568 6.3439 
405 43.629 66.815 74.894 31.133 36.686 55.102 
406 88.903 53.631 45.946 44.282 36.042 22.201 
407 68.765 3.8151 88.925 32.381 15.751 73.991 
408 60.826 48.737 0.53624 21.582 22.253 4.0574 
409 56.890 53.822 41.967 24.093 25.799 18.350 
410 24.112 41.600 9.7069 8.2172 12.287 3.6955 
411 46.904 53.048 89.483 31.120 27.710 77.387 
412 90.332 57.303 8.2453 43.748 38.157 6.6247 
413 12.924 4.9483 3.1221 1.8005 1.6121 1.3024 
414 85.431 49.059 76.852 46.717 34.226 56.707 
415 6.3453 91.778 57.732 35.587 61.476 38.277 
416 22.140 90.984 33.388 32.842 59.635 19.181 
417 38.966 38.119 54.622 15.019 14.001 27.069 
418 10.887 24.987 47.405 6.6771 6.2034 19.582 
419 7.9971 46.012 76.959 17.523 17.779 55.233 
420 28.669 60.438 8.6062 15.331 25.381 5.7003 
421 26.050 8.3393 10.777 3.7248 2.7829 2.2567 
422 11.933 20.365 89.287 16.576 9.2325 74.227 
423 44.641 26.850 71.551 18.330 12.042 46.290 
424 6.1770 76.582 14.071 20.905 39.996 9.1225 
425 74.496 88.479 5.3693 48.917 65.508 11.329 
426 58.080 1.2311 91.950 27.915 13.219 79.381 
427 28.024 10.042 43.850 6.8490 4.2121 16.440 
428 92.699 91.288 17.552 64.628 76.480 14.653 
429 12.816 73.394 40.113 21.626 37.519 19.486 
430 37.805 47.249 44.441 15.495 18.086 19.101 
431 79.149 68.112 65.466 46.896 46.018 43.448 
432 72.024 41.868 89.118 39.433 26.914 76.127 
433 7.3938 65.034 28.374 15.904 28.543 11.663 
434 76.517 7.5553 26.539 24.571 13.384 7.5132 
435 88.567 97.719 3.4290 65.647 84.187 13.901 
436 77.001 10.756 10.308 24.215 13.539 3.1820 
437 53.404 13.402 74.897 20.962 11.064 50.697 
438 48.609 45.418 11.022 15.594 17.647 4.5391 
439 74.100 41.695 6.0815 26.991 22.013 4.1538 
440 72.649 76.884 35.226 42.246 51.079 18.035 
441 25.349 24.966 25.884 5.9049 6.0824 6.8276 
442 92.335 59.810 25.854 47.240 41.351 11.447 
443 22.463 76.670 5.8070 22.205 40.767 7.9999 
444 5.9280 31.326 57.720 9.2573 8.8551 29.493 
445 12.869 61.755 70.455 21.755 28.597 47.816 
446 14.545 98.484 50.181 39.810 71.316 32.740 
447 29.564 82.880 54.978 31.752 50.666 33.612 
448 59.966 23.484 91.093 30.045 16.669 78.310 
449 91.594 37.069 53.784 42.944 28.059 27.507 
450 60.667 10.242 22.433 15.431 8.9020 5.6251 
451 4.7395 62.219 1.6482 13.391 25.518 5.1995 
452 93.129 44.774 8.8281 41.862 30.922 5.4012 
453 6.1914 43.241 95.560 22.876 18.650 87.759 
454 37.782 78.049 10.216 26.224 44.003 8.9430 
455 37.947 9.7396 76.469 15.949 8.0854 52.707 
456 65.002 99.788 9.0395 51.907 79.523 14.281 
457 23.371 74.288 92.370 35.855 44.122 85.731 
458 40.125 4.7909 1.4586 6.6139 4.0893 1.4064 
459 3.8192 72.432 54.413 22.832 37.126 30.920 
460 71.992 26.935 30.569 23.919 15.758 9.7705 
461 91.106 4.5738 57.136 39.290 20.338 29.524 
462 56.664 76.839 82.077 43.434 50.543 68.256 
463 90.238 51.925 60.730 47.413 36.461 36.050 
464 14.071 88.690 88.197 42.128 60.677 80.828 
465 75.514 29.461 12.099 25.405 17.265 4.1279 
466 40.295 90.800 23.327 35.746 61.035 14.921 
467 13.027 40.249 65.118 13.213 13.582 38.536 
468 30.305 70.093 43.392 22.782 35.514 21.308 
469 72.234 86.421 28.137 47.204 62.441 16.455 
470 69.024 24.555 45.239 23.553 14.852 18.656 
471 43.991 35.612 3.1871 11.370 11.815 2.7726 
472 53.510 36.488 18.520 15.517 14.183 5.4670 
473 53.372 78.335 66.111 38.513 49.792 45.412 
474 31.587 75.866 29.881 24.601 41.189 14.321 
475 27.129 54.534 71.009 20.857 23.862 47.698 
476 56.669 37.102 55.266 21.246 16.851 27.920 
477 39.785 29.730 95.129 24.864 15.238 86.134 
478 13.469 74.122 77.258 29.663 41.367 59.598 
479 93.242 24.510 86.858 50.551 27.618 71.611 
480 13.855 61.644 51.518 17.748 26.928 26.518 
481 70.297 63.771 33.117 33.966 36.957 14.602 
482 27.323 12.278 66.669 11.155 6.1369 39.122 
483 97.565 11.294 25.708 40.995 22.149 8.0125 
484 63.968 26.288 69.020 25.726 15.804 43.232 
485 89.021 33.402 99.887 53.420 30.760 97.434 
486 27.702 36.723 77.359 17.487 14.178 55.144 
487 56.856 6.7013 9.4288 12.921 7.4244 2.4703 
488 5.0968 66.108 81.335 26.333 33.498 64.655 
489 86.900 28.402 29.544 34.293 21.465 9.8491 
490 24.780 24.115 9.1216 4.8756 5.4713 2.4753 
491 57.771 90.521 56.290 46.164 65.633 37.045 
492 25.360 93.823 60.936 39.659 65.713 42.334 
493 64.472 79.775 50.062 41.319 52.874 28.997 
494 17.314 91.211 75.681 40.298 62.805 60.815 
495 37.717 54.598 25.212 15.892 22.186 9.1515 
496 78.949 91.701 91.086 68.478 77.285 87.973 
497 33.727 95.885 40.586 39.429 68.292 24.802 
498 75.336 66.020 48.999 40.138 41.427 25.939 
499 95.164 3.0001 89.458 51.445 25.526 75.849 
500 29.451 71.768 60.626 26.472 38.344 37.401 
END_DATA
CTI1   

DESCRIPTOR "Argyll Calibration Target chart information 1"
ORIGINATOR "Argyll targen"
