data/ti1/printer-long.ti1
CTI1   

DESCRIPTOR "Argyll Calibration Target chart information 1"
ORIGINATOR "Argyll targen"
CREATED "Mon Nov  7 19:21:55 2011"
KEYWORD "APPROX_WHITE_POINT"
APPROX_WHITE_POINT "95.106486 100.000000 108.844025"
KEYWORD "COLOR_REP"
COLOR_REP "iRGB"
KEYWORD "WHITE_COLOR_PATCHES"
WHITE_COLOR_PATCHES "4"
KEYWORD "COMP_GREY_STEPS"
COMP_GREY_STEPS "20"
KEYWORD "ERROR_OPTIMISED_PATCHES"
ERROR_OPTIMISED_PATCHES "337"

NUMBER_OF_FIELDS 7
BEGIN_DATA_FORMAT
SAMPLE_ID RGB_R RGB_G RGB_B XYZ_X XYZ_Y XYZ_Z 
END_DATA_FORMAT

NUMBER_OF_SETS 360
BEGIN_DATA
1 100.00 100.00 100.00 95.106 100.00 108.84 
2 100.00 100.00 100.00 95.106 100.00 108.84 
3 100.00 100.00 100.00 95.106 100.00 108.84 
4 100.00 100.00 100.00 95.106 100.00 108.84 
5 94.737 94.737 94.737 84.230 88.558 96.380 
6 89.474 89.474 89.474 74.124 77.927 84.799 
7 84.211 84.211 84.211 64.773 68.089 74.083 
8 78.947 78.947 78.947 56.160 59.028 64.212 
9 73.684 73.684 73.684 48.266 50.724 55.166 
10 68.421 68.421 68.421 41.073 43.157 46.923 
11 63.158 63.158 63.158 34.564 36.309 39.463 
12 57.895 57.895 57.895 28.717 30.158 32.763 
13 52.632 52.632 52.632 23.511 24.682 26.798 
14 47.368 47.368 47.368 18.926 19.858 21.543 
15 42.105 42.105 42.105 14.938 15.662 16.972 
16 36.842 36.842 36.842 11.521 12.068 13.057 
17 31.579 31.579 31.579 8.6510 9.0489 9.7679 
18 26.316 26.316 26.316 6.2985 6.5741 7.0720 
19 21.053 21.053 21.053 4.4330 4.6115 4.9341 
20 15.789 15.789 15.789 3.0203 3.1253 3.3152 
21 10.526 10.526 10.526 2.0219 2.0751 2.1711 
22 5.2632 5.2632 5.2632 1.3931 1.4135 1.4504 
23 0.0000 0.0000 0.0000 1.0000 1.0000 1.0000 
24 74.829 57.078 64.255 38.955 34.806 40.237 
25 0.0000 100.00 0.0000 36.405 71.801 12.802 
26 0.0000 0.0000 100.00 18.871 8.1473 95.129 
27 100.00 0.0000 0.0000 41.830 22.052 2.9132 
28 100.00 0.0000 100.00 59.701 29.199 97.042 
29 100.00 100.00 0.0000 77.235 92.853 14.715 
30 0.0000 100.00 100.00 54.276 78.948 106.93 
31 0.0000 50.065 100.00 26.471 23.344 97.662 
32 100.00 0.0000 52.314 46.049 23.740 25.136 
33 100.00 48.325 0.0000 48.871 36.132 5.2602 
34 0.0000 100.00 51.222 40.436 73.412 34.031 
35 52.912 100.00 0.0000 46.286 76.895 13.265 
36 49.617 0.0000 100.00 27.466 12.579 95.532 
37 0.0000 58.257 0.0000 11.571 22.140 4.5238 
38 0.0000 0.0000 51.979 5.1607 2.6640 22.915 
39 100.00 50.757 100.00 67.530 44.855 99.652 
40 52.827 0.0000 0.0000 10.846 6.0766 1.4614 
41 100.00 100.00 51.828 81.370 94.506 36.492 
42 50.557 100.00 100.00 63.227 83.563 107.35 
43 49.695 0.0000 51.926 13.776 7.1071 23.271 
44 60.023 58.047 0.0000 24.506 28.685 5.1060 
45 0.0000 56.795 55.295 15.759 22.898 29.406 
46 50.444 100.00 40.023 47.690 77.344 25.741 
47 41.375 43.214 100.00 30.240 22.233 97.249 
48 100.00 38.468 42.599 48.876 31.802 18.648 
49 0.0000 36.587 0.0000 4.9013 8.8015 2.3004 
50 0.0000 74.519 100.00 37.107 44.614 101.21 
51 100.00 0.0000 26.348 42.839 22.456 8.2257 
52 72.468 0.0000 100.00 38.631 18.335 96.055 
53 28.051 0.0000 0.0000 3.6114 2.3464 1.1224 
54 0.0000 0.0000 26.409 2.0133 1.4053 6.3371 
55 100.00 74.253 0.0000 59.921 58.229 8.9436 
56 0.0000 100.00 75.302 45.828 75.569 62.431 
57 28.342 100.00 0.0000 39.071 73.175 12.927 
58 100.00 75.344 100.00 78.392 66.575 103.27 
59 0.0000 26.864 100.00 20.948 12.300 95.821 
60 100.00 23.497 0.0000 43.426 25.243 3.4451 
61 0.0000 100.00 24.128 37.253 72.140 17.269 
62 100.00 0.0000 75.796 51.391 25.876 53.273 
63 100.00 100.00 24.425 78.104 93.200 19.290 
64 100.00 100.00 75.779 86.792 96.675 65.049 
65 78.145 100.00 0.0000 59.795 83.861 13.898 
66 34.972 66.815 100.00 37.269 38.860 100.09 
67 100.00 67.630 32.751 58.088 52.059 16.057 
68 24.403 100.00 100.00 56.257 79.969 107.02 
69 100.00 26.721 100.00 61.756 33.309 97.727 
70 74.574 100.00 100.00 75.341 89.809 107.92 
71 28.385 0.0000 68.393 11.277 5.4195 41.171 
72 0.0000 62.884 37.289 15.556 26.830 15.961 
73 66.026 35.477 0.0000 20.724 16.600 2.9724 
74 0.0000 23.110 65.254 9.3959 6.8295 37.600 
75 75.595 66.751 100.00 54.858 47.884 100.90 
76 0.0000 0.0000 74.107 10.091 4.6360 48.885 
77 100.00 64.891 73.615 64.193 52.442 54.560 
78 64.180 0.0000 34.796 17.862 9.4891 11.051 
79 25.746 0.0000 100.00 21.072 9.2823 95.232 
80 26.357 37.905 0.0000 7.5071 10.590 2.5084 
81 0.0000 38.223 30.596 6.6376 10.094 9.6003 
82 32.986 76.053 0.0000 23.716 41.038 7.5321 
83 33.062 100.00 69.337 47.891 76.816 54.258 
84 78.373 0.0000 0.0000 24.543 13.139 2.1032 
85 73.106 28.926 100.00 41.429 23.353 96.876 
86 100.00 32.038 76.079 54.436 31.837 54.683 
87 66.702 100.00 70.888 61.071 83.566 56.940 
88 0.0000 77.039 0.0000 20.644 40.283 7.5482 
89 34.662 0.0000 30.400 6.3656 3.6110 8.2702 
90 74.226 100.00 27.009 58.311 82.972 19.360 
91 66.750 0.0000 74.596 26.685 13.176 50.366 
92 30.623 100.00 25.656 40.480 73.791 17.988 
93 0.0000 19.554 43.362 4.9410 4.3734 16.215 
94 0.0000 75.426 71.008 28.001 41.772 50.778 
95 68.324 78.343 0.0000 38.730 50.726 8.6115 
96 100.00 78.580 58.132 67.677 65.243 37.731 
97 100.00 29.302 23.502 45.108 27.319 7.9810 
98 21.626 0.0000 47.197 5.9456 3.1593 18.865 
99 70.874 23.867 56.809 26.498 16.004 29.027 
100 24.685 47.514 71.210 18.133 18.947 47.167 
101 46.542 70.057 27.979 25.516 37.092 12.637 
102 27.470 71.894 51.764 24.460 37.602 28.447 
103 33.928 23.596 100.00 24.327 13.348 95.845 
104 68.966 100.00 49.528 57.849 82.423 33.370 
105 44.813 19.676 0.0000 9.0423 6.8336 1.7025 
106 73.162 48.255 27.368 29.291 25.878 10.016 
107 59.050 80.568 100.00 53.150 58.059 102.96 
108 43.946 22.268 73.504 17.989 10.861 48.809 
109 0.0000 59.747 79.051 22.680 27.546 60.060 
110 81.020 58.589 0.0000 37.070 35.484 5.7566 
111 100.00 46.369 20.291 48.880 35.178 8.2628 
112 78.354 0.0000 56.573 29.534 15.134 28.459 
113 18.826 57.377 100.00 30.303 29.216 98.594 
114 75.014 74.676 41.814 43.274 49.687 21.845 
115 25.515 57.980 23.982 14.462 23.370 9.0027 
116 48.593 100.00 19.967 45.212 76.273 16.293 
117 73.865 43.801 77.657 37.418 27.074 57.039 
118 41.755 69.497 74.365 31.712 38.940 54.740 
119 56.801 20.054 28.338 14.878 9.7691 8.0778 
120 47.167 0.0000 80.305 19.590 9.3263 58.686 
121 28.155 100.00 49.576 42.791 74.659 32.705 
122 53.900 20.221 100.00 30.354 15.844 96.010 
123 50.233 80.949 0.0000 31.780 49.450 8.7311 
124 0.0000 81.675 54.861 28.076 47.660 33.111 
125 100.00 19.889 59.564 48.592 26.612 32.808 
126 0.0000 20.110 20.380 2.7973 3.6134 4.6234 
127 24.830 29.370 52.639 9.8098 8.7343 24.447 
128 0.0000 18.251 0.0000 1.9883 2.9764 1.3294 
129 17.099 81.344 100.00 42.077 53.050 102.57 
130 100.00 81.866 80.264 75.217 71.424 67.678 
131 19.398 56.249 0.0000 12.066 21.235 4.3231 
132 48.244 0.0000 20.264 9.6967 5.4139 4.5733 
133 47.285 39.007 0.0000 13.210 13.917 2.8503 
134 20.569 18.283 0.0000 3.4167 3.7177 1.3973 
135 52.728 60.091 100.00 39.993 35.832 99.360 
136 100.00 85.395 37.565 68.671 72.398 22.127 
137 50.097 44.558 77.261 25.671 21.346 55.948 
138 77.773 43.481 53.800 34.240 25.953 27.574 
139 0.0000 51.020 18.847 9.4462 17.043 6.4276 
140 81.799 50.393 100.00 52.496 36.923 98.913 
141 17.346 73.112 22.757 20.271 36.784 10.861 
142 0.0000 39.038 54.375 10.058 11.772 26.661 
143 45.685 52.151 24.635 17.382 21.666 8.7572 
144 83.068 14.386 14.556 28.809 16.258 4.2235 
145 49.070 80.420 46.252 34.258 49.877 25.639 
146 85.264 18.527 82.536 42.047 22.333 63.640 
147 82.915 84.376 100.00 69.690 70.117 104.41 
148 0.0000 78.319 19.078 21.925 41.978 10.647 
149 78.502 29.814 37.822 29.302 19.149 14.078 
150 24.654 52.825 45.011 14.610 20.335 20.011 
151 84.760 36.057 0.0000 32.862 23.045 3.5772 
152 18.250 100.00 83.346 49.377 77.120 75.178 
153 50.122 17.825 50.803 14.691 9.0058 22.582 
154 44.125 100.00 83.455 54.954 79.992 75.622 
155 19.349 0.0000 20.244 2.8757 1.8971 4.2478 
156 81.418 72.046 20.570 44.183 48.293 11.125 
157 20.984 17.929 80.905 14.504 8.1021 59.680 
158 21.606 70.348 77.575 28.673 37.905 59.464 
159 0.0000 41.767 78.524 16.504 15.447 57.229 
160 100.00 57.411 47.298 55.461 43.882 24.199 
161 83.251 100.00 83.158 75.142 90.412 76.072 
162 87.655 100.00 38.035 68.829 88.271 25.470 
163 38.619 85.653 100.00 48.839 60.597 103.67 
164 100.00 83.252 17.149 65.658 68.989 13.052 
165 100.00 63.292 13.241 54.799 47.535 8.6302 
166 0.0000 18.232 83.501 13.868 7.7246 63.913 
167 74.054 18.245 0.0000 22.726 13.668 2.3010 
168 62.669 44.154 100.00 38.987 27.130 97.734 
169 15.132 15.756 100.00 20.441 10.081 95.419 
170 17.407 81.708 67.968 31.961 49.367 48.018 
171 85.503 0.0000 38.395 31.814 16.636 13.816 
172 100.00 50.805 83.069 61.419 42.436 67.386 
173 63.895 27.532 75.167 27.506 16.819 51.857 
174 0.0000 84.410 87.526 38.334 54.520 78.634 
175 100.00 44.128 61.653 53.668 36.056 36.677 
176 40.174 57.126 0.0000 16.602 24.074 4.6322 
177 14.206 38.609 19.057 6.6350 10.323 5.3363 
178 100.00 12.759 14.138 42.672 23.230 4.7532 
179 17.277 38.675 100.00 24.284 17.442 96.638 
180 87.280 82.109 65.683 60.613 64.572 46.573 
181 80.871 63.222 86.266 51.705 44.448 73.754 
182 0.0000 84.521 36.926 27.200 50.181 19.638 
183 85.811 14.922 100.00 48.428 24.408 96.711 
184 60.321 83.745 78.778 48.280 59.338 64.423 
185 61.096 86.738 20.544 40.804 59.515 13.461 
186 60.894 58.045 34.258 26.642 29.586 14.173 
187 33.591 80.278 35.362 28.148 46.762 18.021 
188 18.106 21.778 40.728 5.9678 5.3211 14.504 
189 34.296 63.540 39.987 20.103 29.567 17.948 
190 33.526 57.010 58.972 20.316 25.288 33.404 
191 16.682 15.994 57.192 7.8697 5.1035 28.296 
192 100.00 15.442 39.512 44.875 24.439 15.344 
193 16.955 81.968 0.0000 24.575 46.665 8.5729 
194 66.655 0.0000 14.490 17.737 9.5913 3.5061 
195 56.176 65.864 81.509 37.367 39.012 65.421 
196 43.642 19.360 18.798 9.1559 6.7808 4.4485 
197 57.960 11.806 86.304 26.318 13.259 69.138 
198 64.229 81.730 60.116 44.262 55.936 39.297 
199 62.385 33.329 46.678 21.686 16.056 20.109 
200 78.425 87.414 17.207 51.127 65.531 13.164 
201 84.232 35.687 20.608 33.015 22.932 6.8294 
202 31.214 86.778 76.059 39.551 57.866 60.461 
203 50.401 100.00 60.650 51.126 78.716 43.922 
204 89.123 68.552 58.143 52.900 49.616 35.505 
205 41.972 83.228 16.292 30.780 50.988 11.208 
206 62.389 40.647 61.096 25.964 20.409 34.489 
207 33.002 35.988 82.671 20.021 15.058 63.620 
208 42.147 33.610 18.218 10.828 10.865 4.9933 
209 40.329 7.8193 61.925 12.869 6.7798 33.484 
210 66.641 88.882 38.461 46.687 64.525 22.318 
211 68.200 63.566 16.202 31.473 35.675 8.1944 
212 82.565 12.898 62.547 34.241 18.212 35.278 
213 40.994 52.516 89.944 29.195 26.422 78.092 
214 64.281 14.455 43.152 19.580 11.223 16.614 
215 13.128 35.580 43.644 8.1740 9.8316 17.303 
216 34.903 9.0417 87.247 18.502 8.9584 70.385 
217 39.738 86.248 58.503 37.058 56.549 38.058 
218 46.045 41.905 62.251 19.683 17.623 35.591 
219 15.227 100.00 13.430 37.517 72.340 14.365 
220 82.760 59.076 41.730 41.105 37.555 19.559 
221 88.490 34.329 89.398 49.221 29.332 76.591 
222 84.662 34.757 63.001 38.850 24.986 36.869 
223 17.680 62.830 61.471 20.563 28.918 36.837 
224 58.015 36.329 17.814 17.402 15.107 5.3605 
225 57.216 11.920 65.667 20.136 10.760 38.298 
226 36.441 16.601 31.822 7.7692 5.5535 9.2600 
227 86.166 84.244 0.0000 54.153 64.046 10.370 
228 84.579 0.0000 17.835 29.421 15.599 4.8277 
229 15.024 100.00 63.793 43.724 74.821 47.161 
230 5.1866 45.260 68.015 14.795 16.322 42.604 
231 81.182 13.710 46.089 30.284 16.609 19.299 
232 13.295 100.00 38.247 39.216 73.000 24.213 
233 100.00 16.410 83.749 54.606 28.464 66.188 
234 10.752 69.740 48.059 20.701 34.098 24.763 
235 84.221 0.0000 83.729 40.632 20.052 65.267 
236 32.606 67.305 15.598 19.456 32.045 7.9889 
237 87.502 53.065 12.418 40.044 33.898 6.6236 
238 84.191 44.197 37.829 36.580 27.729 15.356 
239 17.484 0.0000 84.203 14.162 6.3857 64.825 
240 16.754 85.472 41.678 29.376 52.153 22.958 
241 90.904 87.065 49.481 63.492 71.177 30.862 
242 15.436 31.973 74.207 13.913 10.985 50.053 
243 53.088 34.648 87.612 27.678 18.394 72.376 
244 63.122 54.101 87.841 37.857 31.808 74.840 
245 10.155 66.238 11.060 15.659 29.356 6.8022 
246 9.3590 62.520 92.901 28.837 31.929 84.771 
247 17.011 46.086 57.994 13.644 16.344 30.994 
248 53.830 44.140 33.648 18.710 18.544 12.131 
249 58.319 12.149 13.400 13.992 8.3848 3.2527 
250 84.870 100.00 63.002 70.904 88.855 47.511 
251 87.722 49.443 71.377 47.098 34.779 48.926 
252 18.779 68.988 36.461 19.512 33.109 16.473 
253 62.440 100.00 86.989 63.635 84.333 82.100 
254 87.641 18.410 30.457 33.631 19.159 9.8623 
255 67.188 100.00 12.837 53.372 80.518 14.996 
256 15.865 46.654 86.396 21.242 19.640 70.799 
257 73.966 46.939 13.263 28.580 25.003 5.6659 
258 63.214 74.405 30.275 35.098 45.398 14.764 
259 50.407 7.2883 35.077 11.921 6.7544 10.993 
260 84.746 84.803 32.137 54.949 64.817 18.372 
261 71.074 27.421 17.043 22.526 15.259 4.9259 
262 30.520 11.426 15.011 4.8858 3.6134 3.1391 
263 88.916 29.062 50.107 38.556 23.528 23.517 
264 48.836 56.319 69.579 27.021 28.072 46.268 
265 33.737 17.892 50.559 9.6734 6.4329 22.133 
266 12.604 27.463 7.5920 3.8839 5.6942 2.3804 
267 84.720 70.854 5.9462 45.430 48.082 8.2017 
268 14.269 2.1484 64.726 8.5216 4.1872 36.496 
269 10.025 5.3068 43.948 4.4595 2.6700 16.340 
270 14.084 85.513 81.302 37.744 55.513 68.250 
271 40.088 6.0103 7.0075 6.7310 4.2004 1.8771 
272 45.450 73.168 88.589 39.201 45.107 78.685 
273 10.354 29.700 88.778 17.616 11.760 73.730 
274 50.530 89.149 30.649 38.594 60.720 17.714 
275 96.681 33.895 11.182 42.358 27.241 5.0072 
276 98.042 90.835 65.006 75.296 80.770 48.099 
277 10.598 56.911 28.975 12.712 21.804 10.795 
278 99.112 66.499 86.490 68.025 55.075 75.341 
279 14.856 43.859 2.6023 7.5423 12.857 3.1329 
280 8.8701 11.729 28.996 3.0204 2.5792 7.6036 
281 48.212 65.018 10.789 22.745 32.171 6.9295 
282 44.055 69.588 56.714 28.344 37.749 33.030 
283 61.511 70.077 47.316 34.035 41.238 24.832 
284 70.516 12.331 25.659 21.047 11.963 7.0779 
285 91.624 61.818 97.166 63.263 49.042 94.758 
286 29.519 43.687 15.705 9.9456 13.986 5.0278 
287 30.686 71.916 66.810 28.193 39.185 44.780 
288 86.759 18.795 2.0912 31.666 18.357 2.8869 
289 69.469 48.540 41.956 28.719 25.538 18.049 
290 89.895 72.298 42.219 52.772 52.682 22.205 
291 21.172 41.549 32.657 9.1598 12.593 10.968 
292 36.157 98.695 11.772 39.985 72.074 13.884 
293 5.0143 90.468 65.571 36.294 60.260 46.884 
294 65.888 52.235 71.662 33.758 29.279 48.958 
295 68.114 69.660 88.640 47.500 46.690 78.648 
296 2.2789 11.651 66.822 8.7455 4.8299 39.188 
297 52.884 28.150 63.248 19.544 13.206 35.901 
298 10.516 31.127 59.438 9.8141 9.0478 31.323 
299 49.359 30.048 37.008 14.117 11.391 12.888 
300 0.72113 29.867 14.195 3.9108 6.2779 3.5340 
301 71.190 88.361 88.208 60.182 69.650 81.629 
302 37.461 95.775 43.801 40.703 68.774 27.083 
303 6.8639 49.730 43.108 11.510 17.213 18.164 
304 22.541 8.1783 33.827 4.6341 3.0703 9.9813 
305 13.698 87.630 27.514 29.030 54.278 15.572 
306 61.351 89.963 4.4838 42.575 63.766 11.253 
307 42.308 47.603 11.150 14.138 17.865 4.6786 
308 72.673 12.866 91.429 36.000 18.151 78.917 
309 58.438 23.744 5.0628 14.974 10.613 2.4938 
310 52.929 75.142 67.462 36.841 46.199 46.503 
311 38.599 89.064 1.8590 33.285 58.052 10.447 
312 74.794 63.574 30.640 36.382 38.099 13.460 
313 88.750 99.696 12.938 67.582 87.482 15.611 
314 41.386 23.956 88.296 21.964 12.709 72.810 
315 89.467 53.226 57.532 46.592 36.787 32.723 
316 95.035 8.4088 66.010 44.671 23.110 39.813 
317 63.933 1.8244 57.217 21.139 10.865 28.735 
318 37.401 4.9841 44.940 8.8906 4.9227 17.284 
319 11.180 92.070 94.082 46.398 66.168 92.756 
320 47.079 88.414 72.684 44.163 61.993 56.144 
321 14.202 58.747 73.837 21.513 26.513 52.119 
322 7.6667 89.392 8.6412 28.875 56.101 10.921 
323 29.820 19.126 66.963 12.287 7.5802 39.709 
324 75.751 89.434 70.423 58.414 70.453 53.921 
325 90.354 54.983 28.507 43.933 36.824 11.843 
326 65.314 32.927 31.373 21.254 15.931 10.331 
327 76.652 86.125 52.371 52.870 64.715 32.738 
328 34.411 50.763 33.006 14.382 19.338 12.175 
329 31.560 97.319 88.338 51.091 74.665 83.311 
330 47.071 87.668 88.640 48.542 62.932 81.727 
331 30.198 27.391 9.8339 6.3640 6.9496 2.7810 
332 69.317 35.187 89.132 36.261 22.927 75.549 
333 8.4708 71.994 84.247 30.327 39.779 70.494 
334 17.435 52.943 14.034 10.939 18.820 5.5523 
335 74.332 65.926 53.124 40.159 41.292 29.586 
336 28.154 41.280 95.443 24.733 18.840 87.463 
337 31.898 42.406 52.976 14.048 15.127 25.771 
338 35.129 55.957 76.791 24.658 26.424 56.272 
339 59.940 74.211 12.206 32.292 43.920 8.9291 
340 31.939 35.160 66.805 15.206 12.820 40.368 
341 40.574 30.180 49.531 12.963 10.630 21.878 
342 86.550 68.286 73.179 54.282 49.727 53.939 
343 88.870 74.961 91.083 65.181 59.844 84.776 
344 3.1079 44.576 10.584 7.2146 12.969 4.0092 
345 79.483 29.203 74.965 37.082 22.169 52.091 
346 48.662 62.411 43.343 24.358 30.973 20.313 
347 27.006 62.642 88.552 29.387 32.471 76.697 
348 97.344 40.101 32.723 45.699 30.885 12.608 
349 86.158 49.391 85.117 49.920 35.741 70.172 
350 22.121 87.861 55.197 33.782 56.539 34.854 
351 56.850 54.155 15.889 21.955 25.134 6.5890 
352 10.770 28.638 29.302 5.0684 6.4568 8.3817 
353 24.071 85.505 15.235 28.121 51.797 11.265 
354 4.6125 69.185 60.304 22.356 34.280 36.477 
355 63.442 47.694 4.3056 22.611 22.294 4.2850 
356 62.382 91.545 98.780 61.523 73.195 102.86 
357 73.395 13.976 73.687 30.918 16.299 49.438 
358 58.458 94.235 53.756 48.698 70.991 35.465 
359 28.462 77.215 90.209 37.580 47.528 82.215 
360 19.683 3.4849 8.5312 2.5483 1.9237 1.8362 
END_DATA
CTI1   

DESCRIPTOR "Argyll Calibration Target chart information 1"
ORIGINATOR "Argyll targen"
KEYWORD "DENSITY_EXTREME_VALUES"
DENSITY_EXTREME_VALUES "8"
CREATED "November 7, 2011"

KEYWORD "INDEX"
NUMBER_OF_FIELDS 7
BEGIN_DATA_FORMAT
INDEX RGB_R RGB_G RGB_B XYZ_X XYZ_Y XYZ_Z 
END_DATA_FORMAT

NUMBER_OF_SETS 8
BEGIN_DATA
0 100.00 100.00 100.00 95.106 100.00 108.84 
1 0.0000 47.361 100.00 25.613 21.629 97.376 
2 100.00 0.0000 79.351 52.426 26.290 58.722 
3 0.0000 0.0000 58.997 6.4858 3.1940 29.894 
4 100.00 66.659 0.0000 56.059 50.505 7.6561 
5 0.0000 35.601 0.0000 4.6856 8.3702 2.2286 
6 84.444 0.0000 0.0000 28.843 15.356 2.3047 
7 0.0000 0.0000 0.0000 1.0000 1.0000 1.0000 
END_DATA
CTI1   

DESCRIPTOR "Argyll Calibration Target chart information 1"
ORIGINATOR "Argyll targen"
KEYWORD "DEVICE_COMBINATION_VALUES"
DEVICE_COMBINATION_VALUES "9"
CREATED "November 7, 2011"

KEYWORD "INDEX"
NUMBER_OF_FIELDS 7
BEGIN_DATA_FORMAT
INDEX RGB_R RGB_G RGB_B XYZ_X XYZ_Y XYZ_Z 
END_DATA_FORMAT

NUMBER_OF_SETS 9
BEGIN_DATA
0 100.00 100.00 100.00 95.106 100.00 108.84 
1 0.0000 100.00 100.00 54.276 78.948 106.93 
2 100.00 0.0000 100.00 59.701 29.199 97.042 
3 0.0000 0.0000 100.00 18.871 8.1473 95.129 
4 100.00 100.00 0.0000 77.235 92.853 14.715 
5 0.0000 100.00 0.0000 36.405 71.801 12.802 
6 100.00 0.0000 0.0000 41.830 22.052 2.9132 
7 0.0000 0.0000 0.0000 1.0000 1.0000 1.0000 
8 60.000 60.000 60.000 30.977 32.536 35.353 
END_DATA
