data/ti1/printer-short.ti1
CTI1   

DESCRIPTOR "Argyll Calibration Target chart information 1"
ORIGINATOR "Argyll targen"
CREATED "Mon Nov  7 19:21:38 2011"
KEYWORD "APPROX_WHITE_POINT"
APPROX_WHITE_POINT "95.106486 100.000000 108.844025"
KEYWORD "COLOR_REP"
COLOR_REP "iRGB"
KEYWORD "WHITE_COLOR_PATCHES"
WHITE_COLOR_PATCHES "4"
KEYWORD "COMP_GREY_STEPS"
COMP_GREY_STEPS "20"
KEYWORD "ERROR_OPTIMISED_PATCHES"
ERROR_OPTIMISED_PATCHES "67"

NUMBER_OF_FIELDS 7
BEGIN_DATA_FORMAT
SAMPLE_ID RGB_R RGB_G RGB_B XYZ_X XYZ_Y XYZ_Z 
END_DATA_FORMAT

NUMBER_OF_SETS 90
BEGIN_DATA
1 100.00 100.00 100.00 95.106 100.00 108.84 
2 100.00 100.00 100.00 95.106 100.00 108.84 
3 100.00 100.00 100.00 95.106 100.00 108.84 
4 100.00 100.00 100.00 95.106 100.00 108.84 
5 94.737 94.737 94.737 84.230 88.558 96.380 
6 89.474 89.474 89.474 74.124 77.927 84.799 
7 84.211 84.211 84.211 64.773 68.089 74.083 
8 78.947 78.947 78.947 56.160 59.028 64.212 
9 73.684 73.684 73.684 48.266 50.724 55.166 
10 68.421 68.421 68.421 41.073 43.157 46.923 
11 63.158 63.158 63.158 34.564 36.309 39.463 
12 57.895 57.895 57.895 28.717 30.158 32.763 
13 52.632 52.632 52.632 23.511 24.682 26.798 
14 47.368 47.368 47.368 18.926 19.858 21.543 
15 42.105 42.105 42.105 14.938 15.662 16.972 
16 36.842 36.842 36.842 11.521 12.068 13.057 
17 31.579 31.579 31.579 8.6510 9.0489 9.7679 
18 26.316 26.316 26.316 6.2985 6.5741 7.0720 
19 21.053 21.053 21.053 4.4330 4.6115 4.9341 
20 15.789 15.789 15.789 3.0203 3.1253 3.3152 
21 10.526 10.526 10.526 2.0219 2.0751 2.1711 
22 5.2632 5.2632 5.2632 1.3931 1.4135 1.4504 
23 0.0000 0.0000 0.0000 1.0000 1.0000 1.0000 
24 94.170 19.507 30.662 39.109 22.151 10.249 
25 0.0000 100.00 0.0000 36.405 71.801 12.802 
26 0.0000 0.0000 100.00 18.871 8.1473 95.129 
27 100.00 0.0000 0.0000 41.830 22.052 2.9132 
28 100.00 0.0000 100.00 59.701 29.199 97.042 
29 100.00 100.00 0.0000 77.235 92.853 14.715 
30 0.0000 100.00 100.00 54.276 78.948 106.93 
31 0.0000 47.178 100.00 25.557 21.518 97.358 
32 100.00 0.0000 48.220 45.368 23.467 21.545 
33 100.00 54.348 0.0000 50.912 40.214 5.9406 
34 0.0000 100.00 48.119 39.927 73.209 31.349 
35 45.692 100.00 0.0000 43.604 75.512 13.139 
36 47.840 0.0000 100.00 26.816 12.244 95.501 
37 0.0000 56.265 0.0000 10.796 20.589 4.2654 
38 0.0000 0.0000 43.125 3.7849 2.1138 15.668 
39 100.00 53.030 100.00 68.311 46.416 99.912 
40 43.687 0.0000 0.0000 7.5406 4.3724 1.3065 
41 100.00 100.00 56.614 82.247 94.857 41.113 
42 55.914 100.00 100.00 65.420 84.693 107.45 
43 37.486 0.0000 35.159 7.5459 4.1654 10.770 
44 67.859 68.496 0.0000 33.184 40.024 6.8377 
45 0.0000 53.597 67.676 17.238 21.590 43.057 
46 48.704 100.00 49.971 48.483 77.586 33.311 
47 34.224 35.330 100.00 26.415 17.421 96.522 
48 100.00 35.309 33.036 47.047 29.935 12.515 
49 26.809 75.998 100.00 40.312 47.482 101.59 
50 100.00 75.840 30.912 62.188 60.536 16.562 
51 26.455 100.00 77.099 48.662 76.971 65.230 
52 74.017 29.014 100.00 42.010 23.674 96.907 
53 70.121 0.0000 24.669 20.247 10.822 6.5254 
54 72.017 0.0000 69.388 28.338 14.187 43.266 
55 10.946 69.858 40.532 19.703 33.795 19.146 
56 66.248 29.712 0.0000 19.728 14.430 2.6060 
57 77.439 100.00 27.141 60.395 84.046 19.511 
58 24.055 34.353 68.549 13.991 11.894 42.481 
59 24.086 74.546 0.0000 21.182 38.492 7.1741 
60 100.00 26.790 73.269 52.759 29.727 50.286 
61 61.013 60.098 100.00 43.684 37.739 99.534 
62 0.0000 48.032 32.309 9.4716 15.505 11.336 
63 22.121 0.0000 72.635 11.331 5.3210 46.864 
64 31.504 29.582 0.0000 6.8237 7.7432 1.9949 
65 77.773 20.723 51.726 29.511 17.085 24.186 
66 78.522 51.739 29.925 34.107 30.031 11.687 
67 24.609 70.798 69.483 27.155 37.716 47.995 
68 57.794 73.594 22.585 31.459 42.938 11.402 
69 100.00 63.806 67.773 62.197 50.859 46.463 
70 55.672 24.456 71.941 22.272 13.544 46.910 
71 88.148 77.739 3.7584 51.773 56.924 9.3935 
72 85.522 16.198 10.323 30.634 17.438 3.5989 
73 17.932 18.717 95.535 19.248 10.082 86.245 
74 0.0000 80.904 79.425 33.543 49.091 64.233 
75 72.095 6.8001 89.885 34.768 17.091 75.888 
76 36.244 3.6765 17.655 5.9819 3.6639 3.7125 
77 77.097 82.301 48.009 49.983 59.667 28.115 
78 58.407 91.007 73.077 50.661 68.016 57.516 
79 48.752 23.142 9.1273 10.980 8.4268 2.7251 
80 21.726 10.196 43.617 5.8005 3.6880 16.223 
81 63.561 30.391 29.412 19.688 14.441 9.2023 
82 2.3708 27.034 47.835 6.6549 6.6350 20.017 
83 32.126 53.584 85.362 25.732 25.377 69.868 
84 37.526 91.262 24.378 35.380 61.326 15.370 
85 9.0662 89.356 24.186 29.634 56.374 14.648 
86 35.157 55.955 21.071 15.472 22.750 7.8596 
87 7.0418 33.272 3.9014 4.5042 7.5557 2.3638 
88 96.653 79.010 57.421 64.749 64.125 36.929 
89 40.587 74.782 48.003 28.477 42.040 25.840 
90 0.0000 19.753 75.120 11.516 7.0377 50.742 
END_DATA
CTI1   

DESCRIPTOR "Argyll Calibration Target chart information 1"
ORIGINATOR "Argyll targen"
KEYWORD "DENSITY_EXTREME_VALUES"
DENSITY_EXTREME_VALUES "8"
CREATED "November 7, 2011"

KEYWORD "INDEX"
NUMBER_OF_FIELDS 7
BEGIN_DATA_FORMAT
INDEX RGB_R RGB_G RGB_B XYZ_X XYZ_Y XYZ_Z 
END_DATA_FORMAT

NUMBER_OF_SETS 8
BEGIN_DATA
0 100.00 100.00 100.00 95.106 100.00 108.84 
1 0.0000 47.361 100.00 25.613 21.629 97.376 
2 100.00 0.0000 79.351 52.426 26.290 58.722 
3 0.0000 0.0000 58.997 6.4858 3.1940 29.894 
4 100.00 66.659 0.0000 56.059 50.505 7.6561 
5 0.0000 35.601 0.0000 4.6856 8.3702 2.2286 
6 84.444 0.0000 0.0000 28.843 15.356 2.3047 
7 0.0000 0.0000 0.0000 1.0000 1.0000 1.0000 
END_DATA
CTI1   

DESCRIPTOR "Argyll Calibration Target chart information 1"
ORIGINATOR "Argyll targen"
KEYWORD "DEVICE_COMBINATION_VALUES"
DEVICE_COMBINATION_VALUES "9"
CREATED "November 7, 2011"

KEYWORD "INDEX"
NUMBER_OF_FIELDS 7
BEGIN_DATA_FORMAT
INDEX RGB_R RGB_G RGB_B XYZ_X XYZ_Y XYZ_Z 
END_DATA_FORMAT

NUMBER_OF_SETS 9
BEGIN_DATA
0 100.00 100.00 100.00 95.106 100.00 108.84 
1 0.0000 100.00 100.00 54.276 78.948 106.93 
2 100.00 0.0000 100.00 59.701 29.199 97.042 
3 0.0000 0.0000 100.00 18.871 8.1473 95.129 
4 100.00 100.00 0.0000 77.235 92.853 14.715 
5 0.0000 100.00 0.0000 36.405 71.801 12.802 
6 100.00 0.0000 0.0000 41.830 22.052 2.9132 
7 0.0000 0.0000 0.0000 1.0000 1.0000 1.0000 
8 60.000 60.000 60.000 30.977 32.536 35.353 
END_DATA
