data/ti1/printer-normal.ti1
CTI1   

DESCRIPTOR "Argyll Calibration Target chart information 1"
ORIGINATOR "Argyll targen"
CREATED "Mon Nov  7 19:21:48 2011"
KEYWORD "APPROX_WHITE_POINT"
APPROX_WHITE_POINT "95.106486 100.000000 108.844025"
KEYWORD "COLOR_REP"
COLOR_REP "iRGB"
KEYWORD "WHITE_COLOR_PATCHES"
WHITE_COLOR_PATCHES "4"
KEYWORD "COMP_GREY_STEPS"
COMP_GREY_STEPS "20"
KEYWORD "ERROR_OPTIMISED_PATCHES"
ERROR_OPTIMISED_PATCHES "157"

NUMBER_OF_FIELDS 7
BEGIN_DATA_FORMAT
SAMPLE_ID RGB_R RGB_G RGB_B XYZ_X XYZ_Y XYZ_Z 
END_DATA_FORMAT

NUMBER_OF_SETS 180
BEGIN_DATA
1 100.00 100.00 100.00 95.106 100.00 108.84 
2 100.00 100.00 100.00 95.106 100.00 108.84 
3 100.00 100.00 100.00 95.106 100.00 108.84 
4 100.00 100.00 100.00 95.106 100.00 108.84 
5 94.737 94.737 94.737 84.230 88.558 96.380 
6 89.474 89.474 89.474 74.124 77.927 84.799 
7 84.211 84.211 84.211 64.773 68.089 74.083 
8 78.947 78.947 78.947 56.160 59.028 64.212 
9 73.684 73.684 73.684 48.266 50.724 55.166 
10 68.421 68.421 68.421 41.073 43.157 46.923 
11 63.158 63.158 63.158 34.564 36.309 39.463 
12 57.895 57.895 57.895 28.717 30.158 32.763 
13 52.632 52.632 52.632 23.511 24.682 26.798 
14 47.368 47.368 47.368 18.926 19.858 21.543 
15 42.105 42.105 42.105 14.938 15.662 16.972 
16 36.842 36.842 36.842 11.521 12.068 13.057 
17 31.579 31.579 31.579 8.6510 9.0489 9.7679 
18 26.316 26.316 26.316 6.2985 6.5741 7.0720 
19 21.053 21.053 21.053 4.4330 4.6115 4.9341 
20 15.789 15.789 15.789 3.0203 3.1253 3.3152 
21 10.526 10.526 10.526 2.0219 2.0751 2.1711 
22 5.2632 5.2632 5.2632 1.3931 1.4135 1.4504 
23 0.0000 0.0000 0.0000 1.0000 1.0000 1.0000 
24 49.234 64.761 63.893 29.338 34.663 40.286 
25 0.0000 100.00 0.0000 36.405 71.801 12.802 
26 0.0000 0.0000 100.00 18.871 8.1473 95.129 
27 100.00 0.0000 0.0000 41.830 22.052 2.9132 
28 100.00 0.0000 100.00 59.701 29.199 97.042 
29 100.00 100.00 0.0000 77.235 92.853 14.715 
30 0.0000 100.00 100.00 54.276 78.948 106.93 
31 0.0000 51.064 100.00 26.803 24.008 97.773 
32 100.00 0.0000 50.675 45.768 23.627 23.654 
33 100.00 49.133 0.0000 49.127 36.644 5.3456 
34 0.0000 100.00 65.313 43.270 74.546 48.959 
35 50.729 100.00 0.0000 45.423 76.450 13.224 
36 49.022 0.0000 100.00 27.245 12.465 95.521 
37 0.0000 63.737 0.0000 13.884 26.765 5.2949 
38 0.0000 0.0000 51.926 5.1515 2.6603 22.867 
39 100.00 49.664 100.00 67.170 44.134 99.532 
40 51.724 0.0000 0.0000 10.405 5.8494 1.4407 
41 100.00 100.00 50.195 81.093 94.395 35.033 
42 49.842 100.00 100.00 62.956 83.423 107.34 
43 49.567 0.0000 50.311 13.454 6.9726 21.822 
44 48.396 60.381 0.0000 20.582 28.069 5.1938 
45 0.0000 53.159 52.790 13.958 20.028 26.550 
46 48.974 100.00 54.441 49.363 77.949 37.430 
47 39.943 48.289 100.00 31.309 24.993 97.726 
48 100.00 45.569 53.276 52.426 36.219 28.103 
49 0.0000 29.177 0.0000 3.4511 5.9016 1.8171 
50 0.0000 75.564 100.00 37.684 45.767 101.40 
51 100.00 0.0000 25.723 42.792 22.437 7.9791 
52 75.093 0.0000 100.00 40.265 19.178 96.131 
53 100.00 74.446 33.594 61.676 59.098 17.668 
54 25.585 0.0000 0.0000 3.1742 2.1210 1.1019 
55 0.0000 0.0000 25.543 1.9486 1.3794 5.9961 
56 25.175 100.00 76.434 48.254 76.783 64.215 
57 100.00 74.549 0.0000 60.082 58.551 8.9973 
58 24.988 100.00 0.0000 38.481 72.871 12.899 
59 66.235 28.539 0.0000 19.523 14.029 2.5395 
60 75.526 100.00 31.704 59.541 83.560 21.532 
61 0.0000 29.113 70.926 11.684 9.1770 45.235 
62 0.0000 71.568 36.626 19.637 35.111 16.950 
63 100.00 27.879 70.674 52.246 29.796 46.737 
64 100.00 75.059 100.00 78.234 66.260 103.22 
65 29.168 71.210 100.00 38.174 42.555 100.75 
66 0.0000 25.814 100.00 20.790 11.985 95.769 
67 100.00 25.915 0.0000 43.764 25.919 3.5578 
68 27.325 0.0000 71.012 11.744 5.5834 44.653 
69 0.0000 100.00 33.404 38.036 72.453 21.390 
70 73.147 57.669 100.00 49.385 39.224 99.521 
71 37.206 23.694 0.0000 7.2813 6.6453 1.7589 
72 100.00 64.109 78.020 65.082 52.231 60.993 
73 70.336 0.0000 29.454 20.749 11.037 8.5084 
74 0.0000 23.625 40.830 5.0923 5.2163 14.599 
75 76.295 0.0000 63.737 29.671 15.031 36.295 
76 0.0000 79.187 72.026 30.425 46.194 52.900 
77 28.267 74.609 0.0000 21.937 38.932 7.2193 
78 62.590 100.00 78.110 60.908 83.251 67.339 
79 100.00 100.00 75.160 86.618 96.605 64.134 
80 76.130 100.00 0.0000 58.466 83.175 13.836 
81 73.992 33.928 100.00 42.906 25.490 97.211 
82 25.036 100.00 100.00 56.359 80.022 107.03 
83 100.00 25.580 100.00 61.586 32.968 97.670 
84 35.355 0.0000 22.355 5.9208 3.4526 5.0484 
85 75.343 100.00 100.00 75.830 90.061 107.94 
86 25.917 77.027 55.426 27.653 43.334 32.853 
87 59.832 25.505 71.983 24.320 14.819 47.107 
88 75.149 47.230 24.811 30.027 25.809 8.9561 
89 21.827 45.291 74.565 17.939 17.758 51.665 
90 44.649 70.552 23.902 24.825 37.143 11.087 
91 100.00 0.0000 75.738 51.375 25.869 53.186 
92 26.036 100.00 26.390 39.668 73.366 18.237 
93 0.0000 0.0000 75.783 10.558 4.8224 51.340 
94 25.607 28.943 100.00 23.460 14.093 96.035 
95 67.789 25.241 46.773 23.180 14.777 19.859 
96 100.00 75.888 60.241 66.567 62.331 39.495 
97 0.0000 37.929 24.389 6.0728 9.7587 6.9642 
98 100.00 100.00 24.637 78.119 93.206 19.368 
99 76.548 100.00 58.666 64.156 85.482 42.388 
100 67.194 77.387 0.0000 37.547 49.295 8.3974 
101 76.623 73.110 36.860 42.857 48.285 18.408 
102 23.319 43.762 0.0000 8.5054 13.318 2.9824 
103 24.514 0.0000 100.00 20.870 9.1778 95.223 
104 62.242 78.462 100.00 53.439 56.347 102.61 
105 39.053 79.710 79.992 38.152 50.379 65.136 
106 100.00 25.718 34.796 45.509 26.571 12.893 
107 24.123 20.448 60.005 9.8526 6.7195 31.488 
108 57.647 27.655 23.937 15.949 11.877 6.6898 
109 23.005 0.0000 42.751 5.4997 3.0038 15.482 
110 54.255 0.0000 75.483 20.908 10.169 51.384 
111 26.868 60.815 30.247 16.345 26.000 11.994 
112 75.809 42.515 64.623 34.911 25.653 39.125 
113 100.00 50.552 24.801 50.485 37.929 10.214 
114 0.0000 58.236 78.640 21.947 26.276 59.213 
115 76.233 0.0000 0.0000 23.128 12.409 2.0369 
116 0.0000 81.364 14.598 23.541 45.540 10.162 
117 22.203 100.00 52.013 42.221 74.317 34.825 
118 51.316 59.729 85.275 33.870 33.080 70.776 
119 51.514 100.00 25.826 46.697 76.995 18.345 
120 52.262 23.975 100.00 30.149 16.425 96.133 
121 81.703 60.887 52.338 42.721 39.311 28.339 
122 20.037 86.007 86.240 40.297 57.128 76.757 
123 54.791 45.000 18.163 18.197 18.776 6.1177 
124 75.947 53.299 0.0000 31.647 29.720 4.9297 
125 53.174 76.155 52.222 34.334 46.112 29.987 
126 35.177 31.676 79.201 18.593 13.150 57.731 
127 24.886 54.289 53.187 16.493 21.929 27.154 
128 50.476 25.395 54.704 16.428 11.174 26.529 
129 77.494 5.5928 46.145 27.333 14.441 19.079 
130 19.116 84.316 18.507 26.815 49.960 11.775 
131 80.848 16.628 18.425 27.587 15.887 5.1349 
132 20.438 54.614 97.301 28.381 26.798 92.578 
133 52.293 81.450 6.5772 32.988 50.517 9.3894 
134 87.446 16.999 84.788 44.292 23.187 67.480 
135 12.467 35.618 87.092 18.338 13.904 71.073 
136 94.069 17.739 47.250 40.860 22.552 20.812 
137 78.004 21.057 62.892 31.903 18.121 35.783 
138 15.578 67.650 70.541 24.702 34.098 48.838 
139 65.107 63.400 15.991 29.702 34.653 8.0416 
140 4.6045 79.507 53.984 26.748 45.044 31.830 
141 87.959 83.621 15.098 55.497 64.107 12.169 
142 86.484 38.529 83.665 46.664 29.616 66.688 
143 45.915 41.120 65.922 20.268 17.525 39.910 
144 37.529 51.665 13.671 14.178 19.834 5.5054 
145 13.855 36.985 54.714 10.340 11.200 26.864 
146 14.330 15.366 79.020 12.960 7.0274 56.563 
147 83.196 82.924 55.375 55.875 63.137 35.139 
148 42.927 96.509 71.613 48.382 72.925 56.545 
149 63.683 43.426 85.114 33.836 24.806 68.902 
150 38.134 87.521 13.974 32.389 55.993 11.586 
151 43.883 13.998 17.020 8.6578 5.8110 3.8271 
152 37.304 13.998 45.089 9.3635 5.8716 17.555 
153 38.006 84.622 38.999 32.381 52.921 21.171 
154 54.408 13.821 35.919 13.996 8.3752 11.674 
155 60.316 62.408 35.604 28.317 33.122 15.517 
156 81.980 61.068 83.309 50.592 42.603 68.389 
157 28.439 63.988 84.501 28.886 33.256 69.743 
158 82.953 34.359 37.114 33.201 22.450 14.081 
159 68.145 85.410 18.978 43.538 59.633 12.889 
160 12.984 16.654 34.722 4.2270 3.7007 10.611 
161 86.186 36.362 10.921 34.211 23.816 4.7336 
162 85.213 63.770 18.698 42.839 41.656 9.3792 
163 11.035 50.728 36.753 11.285 17.677 14.100 
164 67.881 12.271 85.193 31.008 15.765 67.442 
165 96.333 42.140 66.628 50.934 33.712 42.298 
166 18.417 41.676 18.800 7.8168 12.069 5.5402 
167 89.084 89.259 38.155 61.927 72.774 22.917 
168 13.707 59.460 12.762 13.007 23.569 6.1160 
169 56.603 81.504 84.484 46.938 56.359 73.223 
170 56.962 16.443 7.0495 13.531 8.6613 2.3846 
171 21.124 25.841 3.1300 4.4652 5.6352 1.9392 
172 19.733 1.7915 23.950 3.2029 2.1120 5.4810 
173 68.891 44.688 45.130 27.674 23.233 19.974 
174 98.529 58.047 42.174 53.621 43.390 20.335 
175 14.807 85.384 40.281 28.946 51.867 21.981 
176 39.020 12.831 81.168 17.828 9.1747 60.137 
177 69.664 89.354 67.146 53.824 68.099 49.435 
178 41.955 61.100 40.895 21.228 28.563 18.299 
179 60.837 86.200 39.845 42.054 59.429 22.463 
180 36.340 61.171 71.164 25.510 30.142 48.877 
END_DATA
CTI1   

DESCRIPTOR "Argyll Calibration Target chart information 1"
ORIGINATOR "Argyll targen"
KEYWORD "DENSITY_EXTREME_VALUES"
DENSITY_EXTREME_VALUES "8"
CREATED "November 7, 2011"

KEYWORD "INDEX"
NUMBER_OF_FIELDS 7
BEGIN_DATA_FORMAT
INDEX RGB_R RGB_G RGB_B XYZ_X XYZ_Y XYZ_Z 
END_DATA_FORMAT

NUMBER_OF_SETS 8
BEGIN_DATA
0 100.00 100.00 100.00 95.106 100.00 108.84 
1 0.0000 47.361 100.00 25.613 21.629 97.376 
2 100.00 0.0000 79.351 52.426 26.290 58.722 
3 0.0000 0.0000 58.997 6.4858 3.1940 29.894 
4 100.00 66.659 0.0000 56.059 50.505 7.6561 
5 0.0000 35.601 0.0000 4.6856 8.3702 2.2286 
6 84.444 0.0000 0.0000 28.843 15.356 2.3047 
7 0.0000 0.0000 0.0000 1.0000 1.0000 1.0000 
END_DATA
CTI1   

DESCRIPTOR "Argyll Calibration Target chart information 1"
ORIGINATOR "Argyll targen"
KEYWORD "DEVICE_COMBINATION_VALUES"
DEVICE_COMBINATION_VALUES "9"
CREATED "November 7, 2011"

KEYWORD "INDEX"
NUMBER_OF_FIELDS 7
BEGIN_DATA_FORMAT
INDEX RGB_R RGB_G RGB_B XYZ_X XYZ_Y XYZ_Z 
END_DATA_FORMAT

NUMBER_OF_SETS 9
BEGIN_DATA
0 100.00 100.00 100.00 95.106 100.00 108.84 
1 0.0000 100.00 100.00 54.276 78.948 106.93 
2 100.00 0.0000 100.00 59.701 29.199 97.042 
3 0.0000 0.0000 100.00 18.871 8.1473 95.129 
4 100.00 100.00 0.0000 77.235 92.853 14.715 
5 0.0000 100.00 0.0000 36.405 71.801 12.802 
6 100.00 0.0000 0.0000 41.830 22.052 2.9132 
7 0.0000 0.0000 0.0000 1.0000 1.0000 1.0000 
8 60.000 60.000 60.000 30.977 32.536 35.353 
END_DATA
